features/static/lut/blue.CUBE
#Created by: Adobe Photoshop Export Color Lookup Plugin
TITLE "IMG_8784.jpeg"
#LUT size
LUT_3D_SIZE 8
#data domain
#LUT data points
DOMAIN_MIN 0.000000 0.000000 0.000000
DOMAIN_MAX 0.903226 0.903226 0.903226
0.000000 0.000000 0.000000
0.076447 0.019135 0.043365
0.178589 0.058868 0.114410
0.286926 0.105530 0.180450
0.400299 0.152374 0.242859
0.517365 0.199341 0.302765
0.637878 0.246246 0.360931
0.761169 0.293152 0.417786
0.029816 0.116943 0.091248
0.096466 0.125214 0.113647
0.189240 0.142731 0.154816
0.293640 0.168945 0.205750
0.404907 0.201508 0.260223
0.520966 0.238434 0.315613
0.640778 0.278046 0.370941
0.763489 0.319763 0.425720
0.086334 0.237549 0.188538
0.132538 0.241638 0.199249
0.212616 0.251526 0.222656
0.310486 0.267120 0.257446
0.417542 0.288391 0.299652
0.530914 0.314423 0.346344
0.648804 0.344421 0.395416
0.770233 0.377747 0.445801
0.147858 0.358185 0.278809
0.181274 0.360809 0.284943
0.248474 0.367157 0.299927
0.337402 0.377808 0.323944
0.438843 0.392639 0.355652
0.548126 0.411469 0.393097
0.663086 0.434021 0.434601
0.782196 0.460052 0.478851
0.212891 0.478821 0.364746
0.238342 0.480652 0.368774
0.294189 0.485199 0.379181
0.373535 0.492950 0.396729
0.468048 0.504089 0.420776
0.572357 0.518494 0.450531
0.683533 0.536011 0.484924
0.799805 0.556580 0.522827
0.280487 0.599335 0.447510
0.300812 0.600708 0.450592
0.347321 0.604218 0.458313
0.417511 0.610260 0.471527
0.504608 0.619049 0.490356
0.603210 0.630432 0.514282
0.710022 0.644531 0.542725
0.822876 0.661163 0.574921
0.350128 0.719940 0.528107
0.366730 0.720978 0.530426
0.406158 0.723785 0.536560
0.468018 0.728699 0.546967
0.547638 0.735779 0.561981
0.640167 0.745148 0.581543
0.742126 0.756744 0.605286
0.851044 0.770630 0.632721
0.421387 0.840515 0.606934
0.435364 0.841400 0.608826
0.469238 0.843689 0.613647
0.524048 0.847717 0.622131
0.596558 0.853607 0.634491
0.682831 0.861450 0.650696
0.779541 0.871307 0.670715
0.884186 0.883057 0.694214
0.000000 0.000031 0.138031
0.071808 0.020447 0.168091
0.176239 0.059448 0.199890
0.284882 0.106171 0.239899
0.398743 0.152771 0.286255
0.516357 0.199554 0.336121
0.636993 0.246368 0.387268
0.760529 0.293243 0.439270
0.022858 0.120514 0.191193
0.092682 0.126709 0.199951
0.186981 0.143402 0.223328
0.291962 0.169403 0.258057
0.403656 0.201813 0.300415
0.520111 0.238495 0.347229
0.639954 0.278229 0.396210
0.762878 0.319824 0.446625
0.081879 0.239563 0.246887
0.129150 0.243103 0.253784
0.210632 0.252197 0.270844
0.309082 0.267517 0.298218
0.416534 0.288574 0.333557
0.529999 0.314575 0.374146
0.648010 0.344635 0.418579
0.769562 0.377899 0.465302
0.145203 0.359283 0.316223
0.179108 0.361664 0.321259
0.246765 0.367767 0.333740
0.336090 0.378204 0.354492
0.437805 0.392914 0.382599
0.547241 0.411713 0.416382
0.662323 0.434204 0.454712
0.781616 0.460175 0.496307
0.210876 0.479645 0.390961
0.236542 0.481384 0.394531
0.292664 0.485748 0.403931
0.372345 0.493439 0.419769
0.466980 0.504456 0.441925
0.571594 0.518707 0.469666
0.682831 0.536224 0.502075
0.799225 0.556702 0.538116
0.278900 0.600037 0.467072
0.299347 0.601257 0.469849
0.346008 0.604736 0.477112
0.416382 0.610687 0.489471
0.503723 0.619324 0.507233
0.602448 0.630676 0.529968
0.709381 0.644684 0.557190
0.822296 0.661316 0.588165
0.348846 0.720428 0.543335
0.365417 0.721497 0.545593
0.404999 0.724243 0.551361
0.467102 0.729034 0.561279
0.546844 0.736053 0.575684
0.639465 0.745331 0.594543
0.741486 0.756927 0.617432
0.850555 0.770782 0.644073
0.420258 0.840942 0.619202
0.434326 0.841827 0.621033
0.468262 0.844025 0.625671
0.523224 0.848022 0.633850
0.595856 0.853851 0.645874
0.682251 0.861664 0.661621
0.779022 0.871460 0.681122
0.883698 0.883209 0.704041
0.000000 0.000549 0.257782
0.059418 0.025940 0.296143
0.169830 0.061584 0.311890
0.280853 0.107178 0.335785
0.395782 0.153442 0.367096
0.513855 0.200073 0.403687
0.635101 0.246704 0.444275
0.758789 0.293549 0.487518
0.012451 0.126129 0.310699
0.081665 0.131500 0.314545
0.180756 0.145630 0.325958
0.287872 0.170593 0.347626
0.400726 0.202484 0.377167
0.517639 0.239105 0.412201
0.638000 0.278625 0.451538
0.761261 0.320099 0.493774
0.068512 0.245911 0.345276
0.120941 0.246552 0.346954
0.205231 0.254150 0.356995
0.305237 0.268707 0.375671
0.413513 0.289398 0.401642
0.527679 0.315155 0.433502
0.646118 0.345032 0.469971
0.767944 0.378204 0.509827
0.137207 0.362762 0.390839
0.172607 0.364380 0.393890
0.242096 0.369507 0.402557
0.332520 0.379425 0.418182
0.435181 0.393707 0.440430
0.545044 0.412292 0.468201
0.660522 0.434662 0.500854
0.779999 0.460571 0.537079
0.205353 0.481934 0.448395
0.231720 0.483276 0.451050
0.288666 0.487244 0.458344
0.369171 0.494507 0.471313
0.464539 0.505219 0.489929
0.569458 0.519379 0.513824
0.681152 0.536682 0.542206
0.797699 0.557037 0.574402
0.274719 0.601685 0.512177
0.295349 0.602875 0.514526
0.342651 0.605957 0.520630
0.413574 0.611694 0.531372
0.501404 0.620087 0.546906
0.600464 0.631287 0.567139
0.707642 0.645172 0.591675
0.820862 0.661713 0.620056
0.345459 0.721771 0.579712
0.362274 0.722717 0.581665
0.402100 0.725342 0.586761
0.464600 0.729950 0.595703
0.544739 0.736755 0.608734
0.637665 0.745941 0.625977
0.739929 0.757416 0.647125
0.849213 0.771149 0.671875
0.417542 0.842041 0.649078
0.431580 0.842865 0.650726
0.465759 0.844971 0.654938
0.520905 0.848846 0.662537
0.593903 0.854523 0.673584
0.680481 0.862244 0.688354
0.777527 0.871948 0.706665
0.882446 0.883606 0.728302
0.000000 0.001068 0.369568
0.028412 0.042114 0.428772
0.158691 0.065887 0.428741
0.273529 0.109528 0.443481
0.390259 0.154968 0.465118
0.509644 0.201080 0.491974
0.631439 0.247589 0.523132
0.755859 0.294159 0.557831
0.011871 0.125580 0.423859
0.056213 0.143890 0.438934
0.169830 0.149841 0.438354
0.280548 0.172974 0.451691
0.395325 0.204071 0.472321
0.513458 0.240112 0.498413
0.634583 0.279358 0.528809
0.758331 0.320709 0.562897
0.036713 0.262238 0.464935
0.103851 0.254150 0.456696
0.195221 0.258026 0.460022
0.298401 0.271027 0.472046
0.408569 0.290833 0.490723
0.523590 0.316254 0.514801
0.642761 0.345795 0.543549
0.765076 0.378815 0.576080
0.121643 0.369629 0.488007
0.160492 0.369415 0.488312
0.233398 0.372803 0.492981
0.326294 0.381531 0.503815
0.430206 0.395233 0.520508
0.541168 0.413361 0.542328
0.657196 0.435486 0.568695
0.777252 0.461182 0.598938
0.194885 0.486298 0.529388
0.222443 0.486969 0.530853
0.281433 0.489960 0.535767
0.363495 0.496521 0.545471
0.460022 0.506714 0.560211
0.565857 0.520386 0.579620
0.678009 0.537506 0.603363
0.795013 0.557709 0.630859
0.266754 0.604858 0.579987
0.288147 0.605652 0.581635
0.336426 0.608276 0.586273
0.408630 0.613434 0.594849
0.497192 0.621490 0.607727
0.597015 0.632385 0.624847
0.704712 0.646027 0.645966
0.818268 0.662384 0.670746
0.339203 0.724182 0.636688
0.356293 0.725037 0.638275
0.396851 0.727264 0.642395
0.460114 0.731506 0.649902
0.540863 0.738068 0.661133
0.634399 0.747009 0.676270
0.737152 0.758240 0.694946
0.846710 0.771881 0.717102
0.412262 0.844025 0.697479
0.426666 0.844727 0.698853
0.461151 0.846649 0.702515
0.516876 0.850250 0.709106
0.590393 0.855743 0.718933
0.677460 0.863251 0.732147
0.774872 0.872742 0.748688
0.880096 0.884308 0.768433
0.000000 0.001373 0.477203
0.020233 0.046112 0.544189
0.138336 0.074829 0.546417
0.261871 0.113892 0.553894
0.382141 0.157654 0.569275
0.503143 0.202972 0.589417
0.626221 0.248901 0.613739
0.751587 0.295105 0.641632
0.011261 0.125122 0.534546
0.030243 0.157257 0.561768
0.151703 0.157440 0.553955
0.269623 0.176910 0.560425
0.387177 0.206696 0.574768
0.507080 0.241974 0.594513
0.629456 0.280701 0.618347
0.753998 0.321716 0.645721
0.031036 0.264618 0.572510
0.066315 0.272369 0.579102
0.179138 0.264587 0.569672
0.287872 0.274811 0.575928
0.400726 0.293365 0.589142
0.517548 0.317932 0.607483
0.637665 0.347168 0.630157
0.760773 0.379883 0.656494
0.090057 0.384552 0.599823
0.139343 0.378693 0.594360
0.219635 0.378296 0.594025
0.316498 0.385101 0.600494
0.422821 0.397644 0.612610
0.535278 0.415100 0.629547
0.652435 0.436768 0.650665
0.773163 0.462158 0.675507
0.177521 0.493652 0.624786
0.207550 0.493134 0.624664
0.269928 0.494415 0.626831
0.354706 0.499664 0.633331
0.453094 0.508972 0.644501
0.560181 0.522156 0.659973
0.673340 0.538849 0.679413
0.791077 0.558746 0.702393
0.254364 0.609833 0.663330
0.276642 0.610199 0.664215
0.326721 0.612000 0.667175
0.400696 0.616272 0.673523
0.490784 0.623627 0.683685
0.591705 0.634033 0.697693
0.700287 0.647339 0.715454
0.814453 0.663422 0.736633
0.329498 0.727966 0.709625
0.347046 0.728546 0.710754
0.388611 0.730347 0.713837
0.453094 0.734009 0.719727
0.534943 0.740082 0.729004
0.629425 0.748596 0.741699
0.732910 0.759552 0.757782
0.843048 0.772888 0.777039
0.404358 0.846985 0.761353
0.419006 0.847565 0.762451
0.454163 0.849213 0.765411
0.510651 0.852448 0.770874
0.584991 0.857544 0.779236
0.672760 0.864777 0.790680
0.770844 0.874023 0.805176
0.876587 0.885376 0.822723
0.000000 0.003143 0.574127
0.019226 0.045929 0.652222
0.103485 0.090973 0.668518
0.245331 0.120392 0.665344
0.370850 0.161530 0.675629
0.494568 0.205688 0.690979
0.619293 0.250916 0.710236
0.745544 0.296753 0.732849
0.010651 0.124634 0.642670
0.029358 0.156952 0.668488
0.119720 0.171936 0.673584
0.253448 0.183228 0.670715
0.376068 0.210541 0.680084
0.498657 0.244568 0.695068
0.622437 0.282715 0.713959
0.748169 0.323242 0.736267
0.030487 0.264038 0.677124
0.043427 0.283722 0.694000
0.152771 0.276062 0.683899
0.272614 0.280670 0.683197
0.389984 0.297089 0.691772
0.509003 0.320648 0.705597
0.630859 0.349121 0.723694
0.755066 0.381378 0.745239
0.051849 0.403534 0.717316
0.097626 0.398224 0.712097
0.198639 0.387085 0.701141
0.302734 0.390289 0.702728
0.412628 0.401154 0.710846
0.527222 0.417633 0.723724
0.645660 0.438782 0.740631
0.767456 0.463745 0.761047
0.147980 0.506775 0.730591
0.183807 0.503296 0.727509
0.252838 0.501282 0.725891
0.342194 0.504272 0.729034
0.443481 0.512268 0.736908
0.552460 0.524567 0.748962
0.666931 0.540741 0.764709
0.785522 0.560272 0.783844
0.235474 0.617645 0.757111
0.259644 0.617096 0.756897
0.312805 0.617401 0.757843
0.389618 0.620300 0.761810
0.481812 0.626740 0.769409
0.584351 0.636353 0.780609
0.694031 0.649200 0.795258
0.809143 0.664948 0.813110
0.315277 0.733582 0.793854
0.333771 0.733704 0.794373
0.377045 0.734680 0.796173
0.443237 0.737579 0.800415
0.526825 0.742920 0.807648
0.622467 0.750854 0.818115
0.726959 0.761353 0.831665
0.837891 0.774414 0.848236
0.393005 0.851318 0.837036
0.408081 0.851715 0.837830
0.444183 0.852936 0.839935
0.501953 0.855591 0.844147
0.577454 0.860168 0.851013
0.666351 0.866882 0.860626
0.765198 0.875763 0.873138
0.871674 0.886810 0.888428
0.000000 0.004272 0.671539
0.018188 0.045715 0.757751
0.049225 0.118134 0.797516
0.221741 0.130096 0.778351
0.355347 0.167297 0.782776
0.482971 0.209595 0.794098
0.610168 0.253723 0.809570
0.738037 0.298889 0.828156
0.009766 0.124359 0.748077
0.028595 0.156494 0.773376
0.055054 0.203888 0.806671
0.230377 0.192688 0.782715
0.361206 0.215973 0.786743
0.487244 0.248413 0.797577
0.613464 0.285431 0.812683
0.740631 0.325409 0.831024
0.029846 0.263519 0.780518
0.042725 0.283203 0.796753
0.101654 0.299896 0.808167
0.251068 0.289307 0.792664
0.375336 0.302399 0.796417
0.498230 0.324249 0.806641
0.621887 0.351898 0.820862
0.747650 0.383453 0.838562
0.051239 0.403015 0.817047
0.060638 0.416321 0.828491
0.164581 0.401978 0.814178
0.283264 0.397919 0.808258
0.398804 0.406097 0.812317
0.516541 0.421234 0.821747
0.637024 0.441406 0.835236
0.760223 0.465759 0.852112
0.078461 0.540131 0.856476
0.142975 0.521637 0.839935
0.227844 0.511688 0.830658
0.325073 0.510834 0.829437
0.430603 0.516876 0.834015
0.542236 0.527954 0.842987
0.658508 0.543335 0.855713
0.778381 0.562317 0.871521
0.206726 0.629913 0.858978
0.234619 0.627533 0.856934
0.293274 0.625153 0.855042
0.374512 0.626007 0.856262
0.469971 0.630890 0.861267
0.574677 0.639587 0.869873
0.686005 0.651703 0.881805
0.802185 0.666992 0.896759
0.295410 0.741577 0.886047
0.315186 0.741089 0.885803
0.361084 0.740875 0.886169
0.429993 0.742462 0.888550
0.515961 0.746704 0.893768
0.613434 0.753845 0.902039
0.719238 0.763794 0.913239
0.831238 0.776367 0.927338
0.377563 0.857330 0.921356
0.393158 0.857422 0.921692
0.430847 0.857941 0.922913
0.490326 0.859802 0.925751
0.567474 0.863647 0.931000
0.657837 0.869659 0.938873
0.757843 0.878082 0.949402
0.865265 0.888733 0.962646
0.000000 0.006256 0.762939
0.016479 0.046265 0.860352
0.047729 0.118256 0.899445
0.185608 0.145782 0.894196
0.335327 0.175049 0.890869
0.468719 0.214630 0.898254
0.598755 0.257385 0.910339
0.728485 0.301758 0.925537
0.009064 0.123962 0.851776
0.027649 0.156189 0.876221
0.054108 0.203491 0.908600
0.195923 0.207458 0.897614
0.341553 0.223511 0.894318
0.472992 0.253418 0.901245
0.602081 0.289154 0.912964
0.731171 0.328308 0.928009
0.029083 0.263031 0.882507
0.042053 0.282684 0.898346
0.064636 0.317841 0.925354
0.219971 0.302368 0.905182
0.356415 0.309601 0.902588
0.483948 0.329254 0.908905
0.610809 0.355438 0.920044
0.738342 0.386292 0.934631
0.050598 0.402435 0.916565
0.059937 0.415771 0.927582
0.086395 0.438995 0.946228
0.255890 0.409119 0.916962
0.380737 0.412872 0.915924
0.502960 0.425903 0.922028
0.626099 0.444916 0.932465
0.751007 0.468567 0.946259
0.073120 0.542023 0.954712
0.080170 0.551697 0.962830
0.188263 0.528870 0.942139
0.301483 0.520294 0.933472
0.413910 0.523041 0.934204
0.529236 0.532471 0.940216
0.647888 0.546753 0.950134
0.769531 0.565002 0.963196
0.155914 0.652679 0.971954
0.195099 0.644653 0.964813
0.265411 0.636597 0.957733
0.354370 0.633789 0.955078
0.454498 0.636536 0.957184
0.562408 0.643799 0.963287
0.675781 0.654999 0.972717
0.793549 0.669617 0.985199
0.266785 0.753418 0.984955
0.289246 0.751648 0.983521
0.339417 0.749390 0.981781
0.412720 0.748962 0.981842
0.501892 0.751770 0.984863
0.601868 0.757812 0.990997
0.709564 0.766968 1.000000
0.821381 0.782166 1.000000
0.374420 0.859192 1.000000
0.390808 0.859009 1.000000
0.429962 0.858948 1.000000
0.492859 0.859680 1.000000
0.574768 0.862213 1.000000
0.669556 0.867767 1.000000
0.770294 0.877899 1.000000
0.868652 0.895294 1.000000
