features/static/lut/blue.CUBE
#Created by: Adobe Photoshop Export Color Lookup Plugin
TITLE "IMG_8784.jpeg"
#LUT size
LUT_3D_SIZE 5
#data domain
#LUT data points
DOMAIN_MIN 0.000000 0.000000 0.000000
DOMAIN_MAX 0.903226 0.903226 0.903226
0.000000 0.000000 0.000000
0.152649 0.047211 0.096802
0.342834 0.129089 0.211853
0.547089 0.211121 0.317352
0.761169 0.293152 0.417786
0.071442 0.207458 0.165222
0.182739 0.219849 0.196442
0.358490 0.251953 0.264679
0.557037 0.300476 0.349579
0.768066 0.360535 0.439606
0.180176 0.418427 0.322205
0.252197 0.424316 0.335632
0.402100 0.440948 0.372864
0.587128 0.468811 0.429901
0.790344 0.506958 0.499634
0.297638 0.629517 0.467896
0.348022 0.633026 0.475647
0.470306 0.643677 0.498657
0.637604 0.662018 0.537231
0.829468 0.688171 0.588959
0.421387 0.840515 0.606934
0.458679 0.842987 0.612152
0.558258 0.850464 0.627808
0.706177 0.863739 0.655396
0.884186 0.883057 0.694214
0.000000 0.000458 0.228699
0.145172 0.049469 0.278015
0.338898 0.130005 0.326569
0.544434 0.211639 0.394592
0.759308 0.293457 0.472992
0.056488 0.214569 0.307983
0.176239 0.222229 0.318939
0.354950 0.252930 0.358337
0.554657 0.300995 0.418579
0.766327 0.360870 0.491089
0.173401 0.421234 0.399384
0.247467 0.426178 0.408752
0.399048 0.441895 0.436859
0.584961 0.469391 0.482971
0.788696 0.507355 0.542816
0.293457 0.631226 0.515839
0.344452 0.634399 0.522339
0.467743 0.644562 0.542084
0.635651 0.662598 0.576202
0.827942 0.688568 0.622925
0.418365 0.841736 0.639801
0.455994 0.843994 0.644501
0.556091 0.851227 0.658875
0.704468 0.864319 0.684387
0.882874 0.883514 0.720764
0.000000 0.001495 0.422333
0.118408 0.060883 0.486298
0.327271 0.133606 0.506897
0.537018 0.213501 0.546448
0.753815 0.294617 0.598480
0.026276 0.229919 0.509216
0.153961 0.231323 0.507782
0.343872 0.256378 0.525299
0.547333 0.302917 0.561707
0.760956 0.362061 0.611176
0.149292 0.431671 0.557007
0.231415 0.432404 0.558960
0.389069 0.445251 0.574799
0.578156 0.471283 0.605804
0.783630 0.508575 0.649414
0.279633 0.636688 0.632416
0.332825 0.638763 0.636261
0.459290 0.647461 0.649872
0.629425 0.664520 0.675476
0.823151 0.689880 0.712402
0.408752 0.845367 0.727753
0.447266 0.847229 0.731232
0.549011 0.853699 0.742462
0.698883 0.866089 0.763336
0.878479 0.884766 0.793976
0.000000 0.003448 0.598450
0.042328 0.098541 0.709747
0.304352 0.142090 0.696991
0.523102 0.217743 0.720795
0.743927 0.297180 0.756470
0.025085 0.229065 0.694092
0.091797 0.259979 0.718018
0.322327 0.264221 0.709686
0.533813 0.307007 0.731445
0.751099 0.364594 0.765472
0.068878 0.469971 0.761139
0.195679 0.447327 0.740051
0.369720 0.452179 0.743408
0.565430 0.475220 0.762695
0.774200 0.511139 0.793549
0.250427 0.648590 0.789581
0.309082 0.648010 0.789795
0.442963 0.653259 0.796692
0.617737 0.668243 0.814056
0.814270 0.692383 0.841431
0.389587 0.852661 0.857422
0.429901 0.853699 0.859344
0.535370 0.858490 0.866760
0.688385 0.869537 0.882294
0.870178 0.887238 0.906250
0.000000 0.006256 0.762939
0.039795 0.098785 0.889801
0.264465 0.158081 0.890137
0.501221 0.225159 0.900818
0.728485 0.301758 0.925537
0.023956 0.228149 0.874603
0.055206 0.277344 0.912750
0.284882 0.278931 0.899567
0.512512 0.314240 0.908997
0.736084 0.369080 0.932526
0.061768 0.472198 0.935120
0.092804 0.494965 0.953857
0.337189 0.464600 0.923523
0.545166 0.481995 0.932648
0.759583 0.515503 0.954102
0.188446 0.675323 0.972504
0.265839 0.665649 0.964111
0.415771 0.663300 0.961975
0.599213 0.674408 0.971832
0.800446 0.696564 0.991455
0.374420 0.859192 1.000000
0.417908 0.858887 1.000000
0.531769 0.860687 1.000000
0.694458 0.869781 1.000000
0.868652 0.895294 1.000000
