features/static/lut/blue.CUBE
#Created by: Adobe Photoshop Export Color Lookup Plugin
TITLE "IMG_8784.jpeg"
#LUT size
LUT_3D_SIZE 32
#data domain
DOMAIN_MIN 0.0 0.0 0.0
DOMAIN_MAX 1.0 1.0 1.0
#LUT data points
0.000000 0.000000 0.000000
0.012756 0.004303 0.009979
0.031219 0.008026 0.019562
0.053375 0.012634 0.030762
0.076447 0.019135 0.043365
0.101135 0.026703 0.059631
0.126282 0.036346 0.077728
0.152649 0.047211 0.096802
0.178589 0.058868 0.114410
0.205078 0.070557 0.131561
0.232056 0.082214 0.147827
0.259552 0.093781 0.164307
0.286926 0.105530 0.180450
0.314636 0.117401 0.196075
0.342834 0.129089 0.211853
0.371277 0.140747 0.227325
0.400299 0.152374 0.242859
0.429169 0.164154 0.257935
0.458252 0.175873 0.273010
0.487732 0.187592 0.287903
0.517365 0.199341 0.302765
0.547089 0.211121 0.317352
0.577240 0.222778 0.332031
0.607391 0.234528 0.346558
0.637878 0.246246 0.360931
0.668396 0.257965 0.375305
0.699280 0.269684 0.389557
0.730133 0.281403 0.403717
0.761169 0.293152 0.417786
0.792450 0.304810 0.431885
0.823761 0.316589 0.445801
0.855316 0.328278 0.459717
0.005310 0.026886 0.022736
0.020233 0.030762 0.030151
0.038269 0.034698 0.037720
0.059082 0.039612 0.048004
0.081482 0.045746 0.059937
0.105713 0.052338 0.074280
0.129669 0.060516 0.090210
0.154510 0.069366 0.105804
0.180481 0.078339 0.122192
0.206970 0.087769 0.138000
0.233490 0.097809 0.153595
0.260590 0.108032 0.169312
0.287842 0.118530 0.184692
0.315674 0.129089 0.200073
0.343781 0.139832 0.215454
0.372223 0.150726 0.230682
0.400970 0.161652 0.245819
0.429810 0.172791 0.260681
0.458832 0.183960 0.275452
0.488251 0.195160 0.290131
0.518005 0.206329 0.304932
0.547729 0.217712 0.319397
0.577759 0.229065 0.333954
0.607819 0.240448 0.348328
0.638275 0.251831 0.362610
0.668762 0.263306 0.376831
0.699615 0.274719 0.390991
0.730469 0.286224 0.405121
0.761505 0.297791 0.419067
0.792847 0.309204 0.433197
0.824127 0.320740 0.446960
0.855652 0.332306 0.460815
0.011383 0.055847 0.041656
0.026398 0.059601 0.048279
0.044006 0.062103 0.055481
0.063660 0.065826 0.064026
0.085541 0.070282 0.074951
0.108276 0.075836 0.087830
0.132385 0.082062 0.101288
0.157410 0.088776 0.115997
0.182526 0.096649 0.130341
0.208679 0.104645 0.145294
0.235077 0.113373 0.160034
0.261871 0.122406 0.174774
0.289154 0.131836 0.189636
0.317047 0.141327 0.204742
0.344879 0.151306 0.219452
0.372955 0.161469 0.234253
0.401703 0.171753 0.248993
0.430481 0.182220 0.263702
0.459503 0.192810 0.278259
0.488953 0.203400 0.292877
0.518707 0.214111 0.307404
0.548279 0.225128 0.321716
0.578339 0.235992 0.336090
0.608521 0.246979 0.350250
0.638794 0.258118 0.364502
0.669525 0.269165 0.378754
0.700012 0.280457 0.392639
0.731018 0.291595 0.406769
0.761993 0.302856 0.420715
0.793243 0.314178 0.434509
0.824585 0.325500 0.448425
0.856018 0.336823 0.462128
0.018951 0.086334 0.064697
0.035370 0.088501 0.070618
0.051147 0.090637 0.076202
0.069763 0.093536 0.083435
0.090607 0.097015 0.093536
0.112762 0.101440 0.103851
0.135956 0.106628 0.115417
0.160248 0.112244 0.128326
0.185211 0.118561 0.141174
0.211151 0.125336 0.154724
0.237183 0.132751 0.168579
0.263855 0.140594 0.182648
0.291077 0.148804 0.196716
0.318634 0.157410 0.211121
0.346344 0.166443 0.225189
0.374481 0.175598 0.239624
0.403107 0.185059 0.253876
0.431793 0.194794 0.268219
0.460846 0.204590 0.282471
0.490112 0.214630 0.296753
0.519623 0.224854 0.310974
0.549347 0.235138 0.325104
0.579193 0.245667 0.339142
0.609192 0.256226 0.353088
0.639557 0.266876 0.367279
0.670135 0.277557 0.381226
0.700806 0.288391 0.395142
0.731720 0.299225 0.409119
0.762726 0.310120 0.422882
0.793854 0.321136 0.436707
0.825134 0.332245 0.450348
0.856537 0.343323 0.464081
0.029816 0.116943 0.091248
0.044952 0.118439 0.095123
0.059784 0.119904 0.099396
0.076660 0.122437 0.105530
0.096466 0.125214 0.113647
0.118408 0.128448 0.122345
0.140961 0.132721 0.132202
0.164459 0.137512 0.143127
0.189240 0.142731 0.154816
0.214325 0.148712 0.166748
0.240295 0.154938 0.179657
0.266693 0.161804 0.192383
0.293640 0.168945 0.205750
0.320770 0.176666 0.219147
0.348511 0.184601 0.232788
0.376617 0.192810 0.246643
0.404907 0.201508 0.260223
0.433685 0.210358 0.274139
0.462311 0.219574 0.287872
0.491577 0.228821 0.301819
0.520966 0.238434 0.315613
0.550629 0.248108 0.329437
0.580475 0.257874 0.343353
0.610474 0.267914 0.357086
0.640778 0.278046 0.370941
0.671265 0.288300 0.384735
0.701904 0.298645 0.398438
0.732574 0.309204 0.412079
0.763489 0.319763 0.425720
0.794708 0.330261 0.439484
0.826019 0.340942 0.453094
0.857452 0.351715 0.466675
0.043274 0.147064 0.116760
0.055969 0.148468 0.119843
0.069305 0.149597 0.123169
0.085327 0.151520 0.128052
0.104034 0.153809 0.134369
0.124756 0.156647 0.141693
0.146515 0.160217 0.150269
0.169556 0.164307 0.159637
0.193970 0.168610 0.170135
0.218658 0.173737 0.180695
0.244202 0.179108 0.192322
0.270233 0.185059 0.204163
0.296753 0.191406 0.216522
0.323700 0.198273 0.229004
0.351257 0.205261 0.241974
0.379150 0.212738 0.254913
0.407196 0.220581 0.268097
0.435852 0.228546 0.281403
0.464417 0.237000 0.294739
0.493469 0.245605 0.308075
0.522644 0.254486 0.321503
0.552216 0.263489 0.334961
0.582123 0.272644 0.348602
0.612030 0.282104 0.362122
0.642242 0.291626 0.375610
0.672577 0.301392 0.389038
0.703125 0.311249 0.402588
0.733917 0.321198 0.416107
0.764648 0.331360 0.429535
0.795776 0.341522 0.443054
0.827026 0.351837 0.456421
0.858551 0.362152 0.469910
0.057312 0.177155 0.141418
0.068726 0.178101 0.143799
0.080292 0.179260 0.146576
0.095093 0.180878 0.150391
0.112366 0.182953 0.155914
0.132294 0.185211 0.162231
0.153351 0.188293 0.169434
0.175659 0.191803 0.177551
0.199310 0.195587 0.186615
0.223663 0.199951 0.196167
0.248657 0.204712 0.206757
0.274353 0.209961 0.217560
0.300720 0.215515 0.228821
0.327484 0.221497 0.240570
0.354706 0.227844 0.252625
0.382294 0.234528 0.264893
0.410156 0.241638 0.277313
0.438538 0.248932 0.290161
0.467010 0.256592 0.302795
0.495880 0.264496 0.315704
0.524963 0.272705 0.328674
0.554504 0.281036 0.341736
0.584015 0.289703 0.354828
0.613922 0.298462 0.367981
0.643921 0.307495 0.381165
0.674255 0.316650 0.394440
0.704803 0.325897 0.407684
0.735291 0.335419 0.420868
0.766144 0.345001 0.434082
0.797241 0.354706 0.447357
0.828430 0.364563 0.460602
0.859741 0.374512 0.473816
0.071442 0.207458 0.165222
0.081696 0.208130 0.167267
0.092072 0.209106 0.169739
0.105682 0.210449 0.172882
0.121887 0.212280 0.177460
0.140686 0.214355 0.182770
0.160858 0.217010 0.188965
0.182739 0.219849 0.196442
0.205475 0.223358 0.204254
0.229431 0.227081 0.212860
0.254120 0.231232 0.222412
0.279419 0.235870 0.232147
0.305267 0.240875 0.242645
0.331696 0.246216 0.253448
0.358490 0.251953 0.264679
0.385803 0.257965 0.276154
0.413605 0.264343 0.287964
0.441650 0.271027 0.299805
0.470093 0.277985 0.312103
0.498749 0.285217 0.324554
0.527771 0.292725 0.336975
0.557037 0.300476 0.349579
0.586426 0.308533 0.362244
0.616211 0.316742 0.374969
0.646210 0.325104 0.387878
0.676392 0.333679 0.400726
0.706696 0.342499 0.413666
0.737366 0.351379 0.426605
0.768066 0.360535 0.439606
0.799042 0.369751 0.452576
0.830048 0.379211 0.465515
0.861359 0.388672 0.478546
0.086334 0.237549 0.188538
0.095306 0.238159 0.190399
0.104492 0.239105 0.192474
0.117432 0.240021 0.195129
0.132538 0.241638 0.199249
0.150085 0.243561 0.203888
0.169647 0.245819 0.209106
0.190613 0.248413 0.215637
0.212616 0.251526 0.222656
0.235901 0.254913 0.230316
0.260040 0.258575 0.238892
0.284943 0.262726 0.247772
0.310486 0.267120 0.257446
0.336548 0.271912 0.267456
0.363068 0.277100 0.277832
0.390106 0.282562 0.288605
0.417542 0.288391 0.299652
0.445404 0.294434 0.311127
0.473755 0.300720 0.322693
0.502136 0.307434 0.334412
0.530914 0.314423 0.346344
0.560089 0.321503 0.358459
0.589386 0.328918 0.370697
0.618896 0.336578 0.382935
0.648804 0.344421 0.395416
0.678802 0.352539 0.407928
0.709137 0.360718 0.420532
0.739563 0.369171 0.433136
0.770233 0.377747 0.445801
0.801056 0.386536 0.458527
0.831940 0.395508 0.471222
0.863220 0.404541 0.484039
0.101257 0.267731 0.211731
0.109131 0.268372 0.213470
0.117950 0.268951 0.214996
0.129425 0.270020 0.217529
0.143829 0.271271 0.220673
0.160370 0.272980 0.224762
0.178955 0.274994 0.229767
0.199066 0.277405 0.235168
0.220673 0.279999 0.241486
0.243134 0.283081 0.248474
0.266785 0.286407 0.256073
0.291107 0.290100 0.264343
0.316284 0.294067 0.273224
0.341888 0.298492 0.282379
0.368256 0.303070 0.292175
0.394928 0.308075 0.302063
0.422058 0.313385 0.312408
0.449707 0.318939 0.323212
0.477692 0.324738 0.334106
0.505890 0.330933 0.345367
0.534515 0.337280 0.356781
0.563507 0.343842 0.368378
0.592621 0.350800 0.380005
0.622040 0.357880 0.392029
0.651764 0.365173 0.403961
0.681702 0.372711 0.416046
0.711792 0.380524 0.428253
0.742157 0.388428 0.440613
0.772675 0.396545 0.452911
0.803345 0.404816 0.465240
0.834290 0.413269 0.477722
0.865448 0.421844 0.490204
0.116577 0.297821 0.234467
0.123718 0.298370 0.235840
0.131561 0.299042 0.237305
0.142395 0.299835 0.239258
0.155792 0.300964 0.242188
0.171234 0.302612 0.245819
0.188995 0.304382 0.250153
0.208405 0.306458 0.255035
0.229187 0.308899 0.260773
0.251312 0.311554 0.267059
0.274200 0.314606 0.274048
0.298096 0.317993 0.281494
0.322784 0.321564 0.289581
0.348053 0.325500 0.298157
0.373932 0.329834 0.307068
0.400330 0.334351 0.316437
0.427216 0.339142 0.326172
0.454498 0.344269 0.336304
0.482239 0.349609 0.346527
0.510284 0.355286 0.357300
0.538605 0.361206 0.368134
0.567322 0.367340 0.379150
0.596405 0.373718 0.390411
0.625580 0.380341 0.401764
0.655060 0.387177 0.413422
0.684875 0.394226 0.425079
0.714905 0.401489 0.436890
0.745117 0.408936 0.448700
0.775513 0.416595 0.460815
0.806091 0.424408 0.472809
0.836945 0.432404 0.485046
0.867889 0.440552 0.497162
0.132233 0.327972 0.256683
0.138519 0.328552 0.257935
0.145691 0.329132 0.259247
0.155853 0.329773 0.261139
0.168304 0.330902 0.263611
0.182983 0.332275 0.266846
0.199860 0.333862 0.270630
0.218475 0.335754 0.275146
0.238525 0.337952 0.280151
0.259796 0.340424 0.285950
0.282410 0.343079 0.292236
0.305603 0.346222 0.299194
0.329712 0.349548 0.306427
0.354614 0.353149 0.314423
0.380157 0.357056 0.322632
0.406158 0.361176 0.331512
0.432770 0.365601 0.340668
0.459778 0.370331 0.350037
0.487244 0.375275 0.359802
0.514984 0.380524 0.369904
0.543152 0.385986 0.380219
0.571655 0.391663 0.390808
0.600433 0.397614 0.401459
0.629456 0.403809 0.412476
0.658966 0.410156 0.423645
0.688477 0.416779 0.434845
0.718384 0.423553 0.446350
0.748383 0.430542 0.457794
0.778595 0.437805 0.469421
0.809204 0.445160 0.481171
0.839874 0.452759 0.492981
0.870819 0.460449 0.504883
0.147858 0.358185 0.278809
0.153839 0.358612 0.279785
0.160400 0.359131 0.281036
0.169647 0.359802 0.282745
0.181274 0.360809 0.284943
0.195404 0.361908 0.287842
0.211487 0.363342 0.291229
0.229187 0.365112 0.295258
0.248474 0.367157 0.299927
0.269165 0.369415 0.305145
0.291016 0.371918 0.310913
0.313782 0.374725 0.317261
0.337402 0.377808 0.323944
0.361847 0.381104 0.331329
0.386902 0.384644 0.338959
0.412537 0.388550 0.347168
0.438843 0.392639 0.355652
0.465454 0.396973 0.364563
0.492676 0.401550 0.373779
0.520233 0.406403 0.383331
0.548126 0.411469 0.393097
0.576263 0.416840 0.403168
0.605011 0.422302 0.413361
0.633789 0.428101 0.423920
0.663086 0.434021 0.434601
0.692505 0.440247 0.445435
0.722198 0.446655 0.456512
0.752045 0.453217 0.467529
0.782196 0.460052 0.478851
0.812592 0.466949 0.490204
0.843140 0.474091 0.501678
0.873871 0.481415 0.513245
0.163818 0.388367 0.300629
0.169434 0.388641 0.301483
0.175568 0.389130 0.302551
0.184052 0.389832 0.304108
0.195007 0.390656 0.306152
0.208130 0.391754 0.308685
0.223419 0.393127 0.311890
0.240326 0.394714 0.315460
0.259033 0.396515 0.319702
0.279144 0.398529 0.324493
0.300232 0.400879 0.329834
0.322418 0.403534 0.335480
0.345581 0.406311 0.341827
0.369568 0.409363 0.348663
0.394165 0.412720 0.355743
0.419464 0.416260 0.363281
0.445465 0.419983 0.371368
0.471741 0.424072 0.379608
0.498596 0.428314 0.388367
0.525848 0.432831 0.397430
0.553558 0.437561 0.406616
0.581573 0.442505 0.416229
0.609955 0.447693 0.425995
0.638550 0.453094 0.436005
0.667603 0.458710 0.446289
0.696747 0.464508 0.456665
0.726349 0.470520 0.467285
0.756073 0.476715 0.478027
0.786194 0.483063 0.488892
0.816284 0.489655 0.499908
0.846680 0.496490 0.511047
0.877380 0.503387 0.522278
0.180176 0.418427 0.322205
0.185059 0.418854 0.322998
0.190765 0.419281 0.323944
0.198822 0.419830 0.325378
0.209137 0.420593 0.327148
0.221497 0.421631 0.329468
0.236023 0.422882 0.332367
0.252197 0.424316 0.335632
0.270111 0.426025 0.339539
0.289551 0.427917 0.343872
0.310120 0.429993 0.348724
0.331665 0.432434 0.354126
0.354401 0.435059 0.359863
0.377838 0.437866 0.366150
0.402100 0.440948 0.372864
0.426941 0.444214 0.379974
0.452454 0.447784 0.387390
0.478516 0.451508 0.395325
0.505005 0.455536 0.403503
0.531952 0.459717 0.411987
0.559387 0.464111 0.420837
0.587128 0.468811 0.429901
0.615265 0.473602 0.439209
0.643738 0.478638 0.448822
0.672546 0.483948 0.458588
0.701569 0.489380 0.468567
0.730927 0.495056 0.478790
0.760468 0.500885 0.489105
0.790344 0.506958 0.499634
0.820404 0.513184 0.510254
0.850708 0.519592 0.521118
0.881195 0.526154 0.532013
0.196411 0.448578 0.343506
0.201172 0.448944 0.344269
0.206451 0.449341 0.345154
0.213898 0.449829 0.346436
0.223541 0.450592 0.348053
0.235382 0.451508 0.350189
0.249176 0.452606 0.352753
0.264648 0.453979 0.355835
0.281860 0.455566 0.359375
0.300629 0.457306 0.363403
0.320496 0.459320 0.367859
0.341583 0.461517 0.372864
0.363708 0.463928 0.378174
0.386688 0.466553 0.384064
0.410400 0.469452 0.390228
0.434937 0.472473 0.396912
0.460052 0.475830 0.403961
0.485657 0.479340 0.411377
0.511902 0.483063 0.419067
0.538574 0.486969 0.427124
0.565613 0.491150 0.435425
0.593140 0.495483 0.444092
0.620972 0.500092 0.452911
0.649261 0.504791 0.462189
0.677795 0.509735 0.471466
0.706696 0.514923 0.481079
0.735809 0.520233 0.490875
0.765228 0.525696 0.500824
0.794922 0.531464 0.510925
0.824860 0.537354 0.521179
0.855011 0.543396 0.531677
0.885315 0.549622 0.542267
0.212891 0.478821 0.364746
0.217316 0.479095 0.365356
0.222351 0.479401 0.366119
0.229248 0.479950 0.367340
0.238342 0.480652 0.368774
0.249695 0.481415 0.370728
0.262665 0.482483 0.373169
0.277618 0.483734 0.375916
0.294189 0.485199 0.379181
0.312164 0.486847 0.382904
0.331390 0.488708 0.387024
0.352051 0.490692 0.391693
0.373535 0.492950 0.396729
0.395935 0.495483 0.402130
0.419281 0.498138 0.407990
0.443298 0.501007 0.414154
0.468048 0.504089 0.420776
0.493378 0.507416 0.427704
0.519196 0.510925 0.434998
0.545593 0.514557 0.442657
0.572357 0.518494 0.450531
0.599518 0.522614 0.458740
0.627228 0.526855 0.467285
0.655243 0.531342 0.475983
0.683533 0.536011 0.484924
0.712189 0.540863 0.494080
0.741150 0.545929 0.503510
0.770325 0.551147 0.513062
0.799805 0.556580 0.522827
0.829590 0.562073 0.532745
0.859528 0.567841 0.542816
0.889740 0.573792 0.553070
0.229675 0.508911 0.385590
0.233795 0.509216 0.386292
0.238403 0.509521 0.386963
0.244965 0.510040 0.388062
0.253693 0.510559 0.389435
0.264221 0.511383 0.391235
0.276672 0.512360 0.393494
0.290802 0.513580 0.395996
0.306854 0.514862 0.399048
0.324249 0.516388 0.402466
0.342926 0.518158 0.406311
0.362701 0.520111 0.410645
0.383728 0.522186 0.415344
0.405792 0.524475 0.420380
0.428680 0.527008 0.425903
0.452118 0.529755 0.431671
0.476501 0.532593 0.437927
0.501495 0.535675 0.444427
0.526886 0.539001 0.451263
0.552917 0.542480 0.458466
0.579498 0.546112 0.466064
0.606415 0.549988 0.473846
0.633728 0.554016 0.481903
0.661438 0.558289 0.490234
0.689636 0.562653 0.498810
0.718018 0.567261 0.507568
0.746674 0.572052 0.516571
0.775787 0.576965 0.525787
0.805084 0.582123 0.535217
0.834625 0.587402 0.544769
0.864441 0.592834 0.554504
0.894440 0.598480 0.564362
0.246521 0.539032 0.406342
0.250275 0.539368 0.406952
0.254639 0.539673 0.407654
0.260986 0.540039 0.408661
0.269073 0.540619 0.409882
0.279144 0.541351 0.411621
0.291016 0.542328 0.413635
0.304657 0.543365 0.416016
0.319916 0.544617 0.418793
0.336609 0.546051 0.422028
0.354889 0.547607 0.425568
0.374115 0.549469 0.429657
0.394562 0.551483 0.433990
0.416016 0.553650 0.438751
0.438385 0.555969 0.443817
0.461609 0.558502 0.449371
0.485443 0.561249 0.455139
0.510010 0.564209 0.461365
0.535126 0.567261 0.467896
0.560822 0.570557 0.474731
0.586945 0.574005 0.481812
0.613556 0.577698 0.489258
0.640717 0.581512 0.496918
0.668213 0.585480 0.504913
0.696106 0.589661 0.513123
0.724213 0.593994 0.521454
0.752747 0.598541 0.530090
0.781525 0.603241 0.539032
0.810669 0.608093 0.548004
0.840088 0.613098 0.557251
0.869598 0.618317 0.566650
0.899536 0.623688 0.576233
0.263367 0.569244 0.427063
0.267090 0.569427 0.427551
0.271301 0.569672 0.428162
0.277008 0.570160 0.429108
0.284760 0.570648 0.430237
0.294434 0.571350 0.431854
0.305695 0.572235 0.433777
0.318756 0.573212 0.436005
0.333496 0.574371 0.438660
0.349670 0.575714 0.441589
0.367126 0.577301 0.444916
0.385834 0.578979 0.448608
0.405823 0.580841 0.452759
0.426758 0.582886 0.457184
0.448669 0.585114 0.462036
0.471222 0.587585 0.467194
0.494751 0.590088 0.472717
0.518921 0.592865 0.478516
0.543610 0.595825 0.484680
0.569031 0.598907 0.491180
0.594849 0.602142 0.497925
0.621246 0.605591 0.505035
0.648071 0.609192 0.512299
0.675232 0.612976 0.519897
0.702820 0.616974 0.527740
0.730774 0.621094 0.535767
0.759064 0.625427 0.544098
0.787750 0.629852 0.552582
0.816559 0.634521 0.561310
0.845764 0.639252 0.570190
0.875244 0.644165 0.579315
0.904907 0.649292 0.588501
0.280487 0.599335 0.447510
0.283936 0.599579 0.447998
0.287872 0.599884 0.448578
0.293365 0.600281 0.449432
0.300812 0.600708 0.450592
0.309753 0.601440 0.452087
0.320679 0.602142 0.453735
0.333221 0.603088 0.455872
0.347321 0.604218 0.458313
0.362854 0.605530 0.461121
0.379883 0.606934 0.464233
0.398193 0.608490 0.467651
0.417511 0.610260 0.471527
0.437927 0.612183 0.475739
0.459259 0.614319 0.480286
0.481506 0.616608 0.485168
0.504608 0.619049 0.490356
0.528320 0.621613 0.495880
0.552612 0.624420 0.501678
0.577576 0.627350 0.507874
0.603210 0.630432 0.514282
0.629242 0.633728 0.521057
0.655731 0.637146 0.527985
0.682617 0.640747 0.535217
0.710022 0.644531 0.542725
0.737671 0.648468 0.550476
0.765778 0.652527 0.558350
0.794189 0.656738 0.566559
0.822876 0.661163 0.574921
0.851837 0.665710 0.583527
0.881134 0.670471 0.592316
0.910675 0.675323 0.601227
0.297638 0.629517 0.467896
0.301025 0.629669 0.468384
0.304688 0.629974 0.468872
0.309937 0.630310 0.469666
0.316925 0.630829 0.470703
0.325592 0.631409 0.472046
0.335938 0.632202 0.473785
0.348022 0.633026 0.475647
0.361603 0.634064 0.477875
0.376617 0.635254 0.480530
0.393127 0.636597 0.483459
0.410706 0.638153 0.486786
0.429596 0.639771 0.490326
0.449432 0.641663 0.494324
0.470306 0.643677 0.498657
0.492157 0.645782 0.503235
0.514801 0.648071 0.508148
0.538086 0.650543 0.513336
0.562134 0.653168 0.518890
0.586639 0.655975 0.524658
0.611816 0.658905 0.530823
0.637604 0.662018 0.537231
0.663849 0.665283 0.543884
0.690369 0.668701 0.550812
0.717468 0.672272 0.558014
0.744965 0.676056 0.565430
0.772766 0.679932 0.573059
0.800934 0.683990 0.580933
0.829468 0.688171 0.588959
0.858185 0.692474 0.597168
0.887238 0.697083 0.605621
0.916595 0.701691 0.614258
0.315063 0.659637 0.488098
0.318085 0.659882 0.488525
0.321594 0.660126 0.489014
0.326599 0.660431 0.489807
0.333313 0.660858 0.490753
0.341583 0.661438 0.491974
0.351471 0.662140 0.493530
0.363007 0.662994 0.495361
0.376099 0.663940 0.497498
0.390594 0.665100 0.499908
0.406555 0.666382 0.502777
0.423798 0.667725 0.505798
0.442078 0.669373 0.509186
0.461426 0.671112 0.512939
0.481842 0.673004 0.516968
0.503143 0.675018 0.521332
0.525421 0.677185 0.526001
0.548309 0.679535 0.530975
0.571777 0.682068 0.536194
0.596130 0.684723 0.541779
0.620972 0.687500 0.547638
0.646301 0.690491 0.553650
0.672211 0.693604 0.560028
0.698608 0.696838 0.566681
0.725311 0.700287 0.573517
0.752533 0.703857 0.580627
0.780151 0.707520 0.587952
0.808044 0.711395 0.595490
0.836273 0.715454 0.603241
0.864899 0.719604 0.611237
0.893707 0.723907 0.619385
0.922913 0.728394 0.627716
0.332550 0.689758 0.508148
0.335480 0.689972 0.508575
0.338715 0.690247 0.509064
0.343506 0.690521 0.509735
0.349884 0.690948 0.510681
0.357788 0.691498 0.511841
0.367218 0.692139 0.513306
0.378387 0.692963 0.515015
0.390991 0.693878 0.516998
0.405060 0.694946 0.519379
0.420410 0.696136 0.521942
0.437042 0.697510 0.524841
0.454895 0.699036 0.528076
0.473785 0.700653 0.531616
0.493713 0.702423 0.535461
0.514557 0.704407 0.539551
0.536346 0.706421 0.543976
0.558868 0.708710 0.548737
0.582001 0.711090 0.553680
0.605957 0.713593 0.558929
0.630402 0.716278 0.564484
0.655426 0.719086 0.570312
0.681000 0.722076 0.576447
0.707123 0.725159 0.582794
0.733612 0.728455 0.589325
0.760498 0.731842 0.596130
0.787811 0.735413 0.603149
0.815491 0.739075 0.610413
0.843445 0.742920 0.617859
0.871826 0.746948 0.625519
0.900513 0.751007 0.633362
0.929535 0.755280 0.641418
0.350128 0.719940 0.528107
0.352875 0.720123 0.528534
0.356110 0.720337 0.528961
0.360596 0.720642 0.529572
0.366730 0.720978 0.530426
0.374176 0.721558 0.531616
0.383301 0.722168 0.532959
0.393951 0.722931 0.534637
0.406158 0.723785 0.536560
0.419647 0.724854 0.538696
0.434601 0.725922 0.541168
0.450745 0.727264 0.543854
0.468018 0.728699 0.546967
0.486481 0.730255 0.550293
0.506012 0.731873 0.553864
0.526367 0.733765 0.557739
0.547638 0.735779 0.561981
0.569733 0.737885 0.566467
0.592621 0.740173 0.571228
0.616058 0.742554 0.576263
0.640167 0.745148 0.581543
0.664886 0.747833 0.587128
0.690155 0.750671 0.592957
0.715881 0.753632 0.598969
0.742126 0.756744 0.605286
0.768799 0.760040 0.611816
0.795776 0.763397 0.618530
0.823242 0.766968 0.625488
0.851044 0.770630 0.632721
0.879120 0.774414 0.640137
0.907654 0.778412 0.647675
0.936462 0.782440 0.655457
0.367767 0.750092 0.548004
0.370514 0.750244 0.548370
0.373535 0.750427 0.548767
0.377899 0.750702 0.549408
0.383545 0.751129 0.550201
0.390930 0.751556 0.551239
0.399567 0.752197 0.552521
0.409851 0.752899 0.554138
0.421509 0.753784 0.555878
0.434540 0.754700 0.557922
0.449005 0.755798 0.560242
0.464722 0.757050 0.562866
0.481659 0.758392 0.565765
0.499634 0.759827 0.568878
0.518555 0.761505 0.572388
0.538605 0.763245 0.576050
0.559418 0.765167 0.580109
0.581055 0.767151 0.584320
0.603485 0.769348 0.588867
0.626648 0.771606 0.593597
0.650360 0.774078 0.598694
0.674713 0.776642 0.604004
0.699615 0.779388 0.609558
0.725098 0.782196 0.615387
0.750977 0.785248 0.621429
0.777405 0.788330 0.627747
0.804169 0.791626 0.634216
0.831299 0.794983 0.640869
0.858917 0.798492 0.647766
0.886780 0.802185 0.654907
0.915009 0.805969 0.662201
0.943604 0.809875 0.669739
0.385590 0.780212 0.567780
0.388123 0.780396 0.568146
0.390961 0.780579 0.568481
0.395233 0.780823 0.569061
0.400665 0.781250 0.569855
0.407593 0.781708 0.570831
0.416138 0.782227 0.572052
0.425964 0.782928 0.573486
0.437195 0.783691 0.575195
0.449860 0.784637 0.577148
0.463745 0.785736 0.579376
0.479034 0.786865 0.581848
0.495453 0.788116 0.584564
0.512939 0.789520 0.587555
0.531586 0.791046 0.590851
0.551025 0.792786 0.594360
0.571442 0.794586 0.598145
0.592743 0.796509 0.602234
0.614685 0.798584 0.606567
0.637421 0.800781 0.611145
0.660858 0.803101 0.615997
0.684875 0.805603 0.621094
0.709473 0.808228 0.626404
0.734528 0.810913 0.631897
0.760193 0.813812 0.637726
0.786285 0.816772 0.643768
0.812805 0.819885 0.649994
0.839691 0.823212 0.656464
0.867065 0.826538 0.663116
0.894745 0.830078 0.670013
0.922760 0.833679 0.677032
0.951080 0.837494 0.684265
0.403412 0.810364 0.587402
0.405823 0.810547 0.587769
0.408691 0.810699 0.588104
0.412659 0.810944 0.588654
0.417938 0.811310 0.589386
0.424652 0.811737 0.590302
0.432739 0.812286 0.591492
0.442169 0.812958 0.592865
0.453156 0.813690 0.594421
0.465393 0.814575 0.596313
0.478912 0.815552 0.598450
0.493652 0.816650 0.600739
0.509613 0.817902 0.603363
0.526672 0.819244 0.606232
0.544739 0.820740 0.609283
0.563873 0.822327 0.612701
0.583862 0.824066 0.616302
0.604645 0.825928 0.620178
