features/static/lut/Portra_800_3.CUBE
#Created by: Adobe Photoshop Export Color Lookup Plugin
TITLE "Portra 800 3"
#LUT size
LUT_3D_SIZE 8
#data domain
#LUT data points
DOMAIN_MIN 0.000000 0.000000 0.000000
DOMAIN_MAX 0.903226 0.903226 0.903226
0.046448 0.045319 0.045319
0.132568 0.053955 0.047150
0.240723 0.065796 0.040863
0.339844 0.076691 0.026764
0.430115 0.086639 0.006989
0.533020 0.106354 0.010040
0.649872 0.132080 0.017548
0.778381 0.160339 0.021271
0.058075 0.132446 0.052368
0.147644 0.121063 0.060974
0.255798 0.131378 0.056274
0.354919 0.141022 0.043610
0.445190 0.150940 0.025146
0.548126 0.170685 0.029602
0.664948 0.196442 0.038696
0.793457 0.224640 0.044098
0.072632 0.242889 0.056152
0.162262 0.228729 0.064789
0.274750 0.210938 0.075623
0.373871 0.221832 0.064758
0.464172 0.231781 0.047943
0.567047 0.251495 0.054169
0.683868 0.277222 0.065216
0.812378 0.305420 0.072784
0.086029 0.344147 0.054779
0.175598 0.329987 0.063416
0.288116 0.312195 0.074249
0.391235 0.295898 0.084167
0.481506 0.305817 0.068848
0.584412 0.325531 0.076691
0.701233 0.351318 0.089539
0.829742 0.379517 0.099121
0.098236 0.436371 0.049500
0.187775 0.422211 0.058105
0.300323 0.404419 0.068939
0.403412 0.388123 0.078857
0.497345 0.373291 0.087891
0.600220 0.393036 0.097198
0.717072 0.418762 0.111694
0.845581 0.447021 0.123077
0.117340 0.544342 0.071106
0.206940 0.530182 0.079712
0.319427 0.512421 0.090546
0.422546 0.496094 0.100464
0.516479 0.481262 0.109497
0.617188 0.465332 0.119202
0.734009 0.491058 0.135437
0.862518 0.519318 0.148773
0.141144 0.668091 0.102966
0.230774 0.653931 0.111603
0.343231 0.636169 0.122437
0.446411 0.619843 0.132355
0.540344 0.605011 0.141388
0.640991 0.589081 0.151062
0.752838 0.571411 0.161835
0.881348 0.599701 0.177307
0.167297 0.804230 0.138000
0.256805 0.790100 0.146606
0.369293 0.772308 0.157440
0.472443 0.756012 0.167358
0.566467 0.741150 0.176422
0.667114 0.725250 0.186096
0.779022 0.707550 0.196869
0.902069 0.688080 0.208710
0.058075 0.053955 0.119171
0.136566 0.053955 0.119171
0.244720 0.065796 0.106110
0.343842 0.076691 0.090637
0.434143 0.086639 0.076843
0.537048 0.106354 0.081940
0.653870 0.132080 0.095398
0.782379 0.160339 0.110016
0.058075 0.132446 0.119171
0.148193 0.141907 0.121735
0.256348 0.153778 0.107056
0.355469 0.164642 0.092224
0.445740 0.174591 0.079407
0.549927 0.196198 0.088348
0.666748 0.221924 0.101776
0.795288 0.250183 0.116486
0.072632 0.242889 0.122375
0.162750 0.252380 0.124878
0.275299 0.234589 0.135712
0.374420 0.245483 0.121613
0.464691 0.255402 0.108795
0.568848 0.276978 0.117737
0.685699 0.302765 0.131165
0.814209 0.330963 0.145874
0.086029 0.344147 0.125275
0.176117 0.353607 0.127808
0.288666 0.335846 0.138641
0.391785 0.319519 0.148560
0.482056 0.329437 0.135742
0.586212 0.351074 0.144653
0.703064 0.376831 0.158112
0.831573 0.405060 0.172821
0.098236 0.436371 0.127899
0.188354 0.445831 0.130493
0.300873 0.428040 0.141296
0.403961 0.411743 0.151215
0.497864 0.396912 0.160248
0.602051 0.418549 0.169220
0.718842 0.444214 0.182617
0.847382 0.472504 0.197327
0.117340 0.544342 0.149597
0.208740 0.555695 0.156006
0.321228 0.537903 0.166840
0.424377 0.521606 0.176758
0.518311 0.506744 0.185822
0.618988 0.490845 0.195496
0.735809 0.516510 0.208893
0.864319 0.544769 0.223633
0.141144 0.668091 0.181488
0.232544 0.679443 0.187897
0.345093 0.661652 0.198730
0.448212 0.645355 0.208649
0.542053 0.630524 0.217682
0.642731 0.614594 0.227356
0.754639 0.596924 0.238129
0.883179 0.625214 0.252869
0.167297 0.804230 0.216431
0.258698 0.815582 0.222931
0.371185 0.797791 0.233734
0.474335 0.781494 0.243683
0.568237 0.766663 0.252716
0.668854 0.750732 0.262390
0.780853 0.733032 0.273163
0.903900 0.713593 0.285004
0.072632 0.065796 0.220947
0.151154 0.065796 0.220947
0.249756 0.065796 0.220947
0.348877 0.076691 0.206848
0.439148 0.086639 0.194061
0.542053 0.106354 0.199066
0.658905 0.132080 0.212463
0.787415 0.160339 0.227112
0.072632 0.144318 0.220947
0.162750 0.153778 0.223480
0.261383 0.153778 0.223480
0.360504 0.164642 0.209381
0.450775 0.174591 0.196594
0.554932 0.196198 0.205475
0.671783 0.221924 0.218964
0.800293 0.250183 0.233612
0.072632 0.242889 0.220947
0.162750 0.252380 0.223480
0.275970 0.264252 0.226685
0.375092 0.275146 0.212585
0.465973 0.285919 0.201508
0.571136 0.309052 0.213562
0.687958 0.334747 0.226959
0.816498 0.363007 0.241669
0.086029 0.344147 0.223877
0.176117 0.353607 0.226410
0.289368 0.365509 0.229584
0.392456 0.349213 0.239502
0.483337 0.360016 0.228455
0.588501 0.383148 0.240509
0.705322 0.408813 0.253906
0.833649 0.437103 0.268616
0.098236 0.436371 0.226532
0.188354 0.445831 0.229095
0.302094 0.458588 0.234009
0.405243 0.442291 0.243927
0.499146 0.427429 0.252960
0.604309 0.450562 0.265045
0.721130 0.476227 0.278412
0.849274 0.504517 0.293152
0.117340 0.544342 0.248169
0.208740 0.555695 0.254578
0.323517 0.569946 0.262665
0.426666 0.553650 0.272614
0.520569 0.538788 0.281647
0.621246 0.522888 0.291321
0.738068 0.548584 0.304718
0.865997 0.576843 0.319458
0.141144 0.668091 0.280029
0.232544 0.679443 0.286530
0.347290 0.693695 0.294525
0.450409 0.677399 0.304443
0.544312 0.662567 0.313477
0.645020 0.646637 0.323181
0.756897 0.628937 0.333954
0.884613 0.657166 0.348663
0.167297 0.804230 0.315002
0.258698 0.815582 0.321503
0.373444 0.829834 0.329559
0.476593 0.813538 0.339478
0.570496 0.798676 0.348511
0.671173 0.782776 0.358215
0.782990 0.765106 0.368958
0.905090 0.745636 0.380829
0.086029 0.076691 0.314240
0.164520 0.076691 0.314240
0.263123 0.076691 0.314240
0.353485 0.076691 0.314240
0.443756 0.086639 0.301392
0.546661 0.106354 0.306427
0.663513 0.132080 0.319916
0.792023 0.160339 0.334534
0.086029 0.155182 0.314240
0.176117 0.164642 0.316772
0.274750 0.164642 0.316772
0.365112 0.164642 0.316772
0.455383 0.174591 0.303925
0.559540 0.196198 0.312866
0.676392 0.221924 0.326355
0.804932 0.250183 0.341034
0.086029 0.253784 0.314240
0.176117 0.263245 0.316772
0.289368 0.275146 0.319946
0.379730 0.275146 0.319946
0.470581 0.285919 0.308899
0.575745 0.309052 0.320984
0.692566 0.334747 0.334320
0.821106 0.363007 0.349091
0.086029 0.344147 0.314240
0.176117 0.353607 0.316772
0.289368 0.365509 0.319946
0.393097 0.376404 0.322876
0.485413 0.389343 0.316254
0.590546 0.412476 0.328339
0.707397 0.438171 0.341705
0.836182 0.466705 0.356750
0.098236 0.436371 0.316864
0.188354 0.445831 0.319427
0.302094 0.458588 0.324402
0.407288 0.471649 0.331757
0.501251 0.456787 0.340790
0.606384 0.479919 0.352844
0.723206 0.505615 0.366241
0.850281 0.534119 0.381256
0.117340 0.544342 0.338531
0.208740 0.555695 0.344971
0.323517 0.569946 0.353058
0.428680 0.583008 0.360413
0.522644 0.568146 0.369476
0.623322 0.552246 0.379150
0.740143 0.577972 0.392548
0.865387 0.606415 0.407562
0.141144 0.668091 0.370453
0.232544 0.679443 0.376892
0.347290 0.693695 0.384888
0.452484 0.706757 0.392273
0.546417 0.691895 0.401306
0.647125 0.675995 0.411011
0.758972 0.658295 0.421783
0.882202 0.686798 0.436798
0.167297 0.804230 0.405396
0.258698 0.815582 0.411896
0.373444 0.829834 0.419952
0.478912 0.843140 0.427612
0.572784 0.828308 0.436646
0.673431 0.812378 0.446320
0.785370 0.794678 0.457092
0.900696 0.775238 0.468933
0.098236 0.086639 0.399170
0.176697 0.086639 0.399170
0.275330 0.086639 0.399170
0.365662 0.086639 0.399170
0.447968 0.086639 0.399170
0.550873 0.106354 0.404266
0.667694 0.132080 0.417725
0.796234 0.160339 0.432404
0.098236 0.165100 0.399170
0.188354 0.174591 0.401733
0.286957 0.174591 0.401733
0.377289 0.174591 0.401733
0.459595 0.174591 0.401733
0.563751 0.196198 0.410706
0.680573 0.221924 0.424042
0.809113 0.250183 0.438782
0.098236 0.263733 0.399170
0.188354 0.273193 0.401733
0.302094 0.285919 0.406677
0.392487 0.285919 0.406677
0.474762 0.285919 0.406677
0.579926 0.309052 0.418732
0.696747 0.334747 0.432098
0.825287 0.363007 0.446838
0.098236 0.354065 0.399170
0.188354 0.363525 0.401733
0.302094 0.376312 0.406677
0.407288 0.389343 0.414062
0.489624 0.389343 0.414062
0.594757 0.412476 0.426117
0.711578 0.438171 0.439514
0.840363 0.466705 0.454468
0.098236 0.436371 0.399170
0.188354 0.445831 0.401733
0.302094 0.458588 0.406677
0.407288 0.471649 0.414062
0.506439 0.486847 0.424438
0.612976 0.511383 0.438049
0.731384 0.538635 0.453156
0.861633 0.568634 0.469788
0.117340 0.544342 0.420868
0.208740 0.555695 0.427307
0.323517 0.569946 0.435333
0.428680 0.583008 0.442719
0.529266 0.599609 0.454651
0.629944 0.583710 0.464355
0.748322 0.610962 0.479462
0.875275 0.640961 0.496094
0.141144 0.668091 0.452759
0.232544 0.679443 0.459106
0.347290 0.693695 0.467163
0.452484 0.706757 0.474579
0.554596 0.724915 0.488220
0.655273 0.709015 0.497925
0.767151 0.691315 0.508698
0.890442 0.721313 0.525299
0.167297 0.804230 0.487762
0.258698 0.815582 0.494171
0.373444 0.829834 0.502228
0.478912 0.843140 0.509857
0.582458 0.862793 0.525146
0.683167 0.846863 0.534851
0.795013 0.829193 0.545593
0.907135 0.809723 0.557465
0.117340 0.106354 0.509094
0.195862 0.106354 0.509094
0.294434 0.106354 0.509094
0.384796 0.106354 0.509094
0.467133 0.106354 0.509094
0.555359 0.106354 0.509094
0.672211 0.132080 0.522522
0.800720 0.160339 0.537201
0.117340 0.184845 0.509094
0.208740 0.196198 0.515503
0.307312 0.196198 0.515503
0.397705 0.196198 0.515503
0.480042 0.196198 0.515503
0.568237 0.196198 0.515503
0.685059 0.221924 0.528870
0.813599 0.250183 0.543579
0.117340 0.283417 0.509094
0.208740 0.294769 0.515503
0.323517 0.309052 0.523560
0.413910 0.309052 0.523560
0.496216 0.309052 0.523560
0.584442 0.309052 0.523560
0.701263 0.334747 0.536957
0.829803 0.363007 0.551697
0.117340 0.373779 0.509094
0.208740 0.385162 0.515503
0.323517 0.399445 0.523560
0.428680 0.412476 0.530945
0.511017 0.412476 0.530945
0.599243 0.412476 0.530945
0.716095 0.438171 0.544373
0.844879 0.466705 0.559296
0.117340 0.456116 0.509094
0.208740 0.467499 0.515503
0.323517 0.481720 0.523560
0.428680 0.494781 0.530945
0.529266 0.511383 0.542877
0.617493 0.511383 0.542877
0.735870 0.538635 0.557983
0.866119 0.568634 0.574646
0.117340 0.544342 0.509094
0.208740 0.555695 0.515503
0.323517 0.569946 0.523560
0.428680 0.583008 0.530945
0.529266 0.599609 0.542877
0.640289 0.620697 0.559265
0.758698 0.647949 0.574371
0.888947 0.677948 0.591003
0.141144 0.668091 0.540955
0.232544 0.679443 0.547333
0.347290 0.693695 0.555420
0.452484 0.706757 0.562836
0.554596 0.724915 0.576447
0.665649 0.746002 0.592834
0.777527 0.728333 0.603607
0.902344 0.758301 0.620239
0.167297 0.804230 0.575958
0.258698 0.815582 0.582367
0.373444 0.829834 0.590454
0.478912 0.843140 0.598083
0.582458 0.862793 0.613403
0.693512 0.883850 0.629761
0.805389 0.866180 0.640533
0.917114 0.846710 0.652374
0.141144 0.132080 0.638977
0.219696 0.132080 0.638977
0.318237 0.132080 0.638977
0.408661 0.132080 0.638977
0.490967 0.132080 0.638977
0.579163 0.132080 0.638977
0.677185 0.132080 0.638977
0.805725 0.160339 0.653748
0.141144 0.210602 0.638977
0.232544 0.221924 0.645416
0.331177 0.221924 0.645416
0.421539 0.221924 0.645416
0.503754 0.221924 0.645416
0.591980 0.221924 0.645416
0.690063 0.221924 0.645416
0.818604 0.250183 0.660217
0.141144 0.309143 0.638977
0.232544 0.320557 0.645416
0.347290 0.334747 0.653473
0.437653 0.334747 0.653473
0.519958 0.334747 0.653473
0.608215 0.334747 0.653473
0.706268 0.334747 0.653473
0.834808 0.363007 0.668121
0.141144 0.399567 0.638977
0.232544 0.410919 0.645416
0.347290 0.425110 0.653473
0.452484 0.438171 0.660858
0.534790 0.438171 0.660858
0.623047 0.438171 0.660858
0.721069 0.438171 0.660858
0.849884 0.466705 0.675842
0.141144 0.481873 0.638977
0.232544 0.493134 0.645416
0.347290 0.507385 0.653473
0.452484 0.520477 0.660858
0.554596 0.538635 0.674500
0.642822 0.538635 0.674500
0.740875 0.538635 0.674500
0.871124 0.568634 0.691101
0.141144 0.570068 0.638977
0.232544 0.581360 0.645416
0.347290 0.595642 0.653473
0.452484 0.608734 0.660858
0.554596 0.626862 0.674500
0.665649 0.647949 0.690887
0.763702 0.647949 0.690887
0.893951 0.677948 0.707489
0.141144 0.668091 0.638977
0.232544 0.679443 0.645416
0.347290 0.693695 0.653473
0.452484 0.706757 0.660858
0.554596 0.724915 0.674500
0.665649 0.746002 0.690887
0.789032 0.769440 0.709076
0.919281 0.799408 0.725677
0.167297 0.804230 0.674042
0.258698 0.815582 0.680511
0.373444 0.829834 0.688446
0.478912 0.843140 0.696167
0.582458 0.862793 0.711426
0.693512 0.883850 0.727814
0.816895 0.907288 0.746002
0.931885 0.887817 0.757843
0.167297 0.160339 0.781891
0.245758 0.160339 0.781891
0.344330 0.160339 0.781891
0.434723 0.160339 0.781891
0.517090 0.160339 0.781891
0.605286 0.160339 0.781891
0.703369 0.160339 0.781891
0.811218 0.160339 0.781891
0.167297 0.238770 0.781891
0.258698 0.250183 0.788330
0.357269 0.250183 0.788330
0.447662 0.250183 0.788330
0.529938 0.250183 0.788330
0.618134 0.250183 0.788330
0.716278 0.250183 0.788330
0.824127 0.250183 0.788330
0.167297 0.337341 0.781891
0.258698 0.348755 0.788330
0.373444 0.363007 0.796387
0.463837 0.363007 0.796387
0.546112 0.363007 0.796387
0.634338 0.363007 0.796387
0.732330 0.363007 0.796387
0.840302 0.363007 0.796387
0.167297 0.427734 0.781891
0.258698 0.439148 0.788330
0.373444 0.453400 0.796387
0.478912 0.466705 0.804047
0.561157 0.466705 0.804047
0.649384 0.466705 0.804047
0.747467 0.466705 0.804047
0.855377 0.466705 0.804047
0.167297 0.510101 0.781891
0.258698 0.521423 0.788330
0.373444 0.535675 0.796387
0.478912 0.548950 0.804047
0.582458 0.568634 0.819305
0.670715 0.568634 0.819305
0.768738 0.568634 0.819305
0.876648 0.568634 0.819305
0.167297 0.598297 0.781891
0.258698 0.609619 0.788330
0.373444 0.623901 0.796387
0.478912 0.637177 0.804047
0.582458 0.656891 0.819305
0.693512 0.677948 0.835693
0.791565 0.677948 0.835693
0.899445 0.677948 0.835693
0.167297 0.696381 0.781891
0.258698 0.707764 0.788330
0.373444 0.721893 0.796387
0.478912 0.735260 0.804047
0.582458 0.754913 0.819305
0.693512 0.776001 0.835693
0.816895 0.799408 0.853882
0.924774 0.799408 0.853882
0.167297 0.804230 0.781891
0.258698 0.815582 0.788330
0.373444 0.829834 0.796387
0.478912 0.843140 0.804047
0.582458 0.862793 0.819305
0.693512 0.883850 0.835693
0.816895 0.907288 0.853882
0.952667 0.933044 0.873901
