features/static/lut/Portra_800_3.CUBE
#Created by: Adobe Photoshop Export Color Lookup Plugin
TITLE "Portra 800 3"
#LUT size
LUT_3D_SIZE 5
#data domain
#LUT data points
DOMAIN_MIN 0.000000 0.000000 0.000000
DOMAIN_MAX 0.903226 0.903226 0.903226
0.046448 0.045319 0.045319
0.214417 0.062927 0.043274
0.385559 0.081726 0.017578
0.561127 0.112579 0.012207
0.778381 0.160339 0.021271
0.069122 0.216034 0.055756
0.243835 0.188416 0.072571
0.414978 0.207245 0.051727
0.590546 0.238098 0.051117
0.807800 0.285828 0.065826
0.092194 0.390839 0.052582
0.266968 0.363220 0.069397
0.444946 0.335083 0.086548
0.620514 0.365906 0.090729
0.837769 0.413635 0.111237
0.123077 0.574127 0.078796
0.297852 0.546509 0.095612
0.475830 0.518372 0.112732
0.649811 0.490875 0.129456
0.867065 0.538635 0.155640
0.167297 0.804230 0.138000
0.342041 0.776611 0.154816
0.519989 0.748505 0.171936
0.694031 0.720978 0.188690
0.902069 0.688080 0.208710
0.069122 0.062927 0.196198
0.222229 0.062927 0.196198
0.393372 0.081726 0.171906
0.568939 0.112579 0.173889
0.786194 0.160339 0.198730
0.069122 0.216034 0.196198
0.244904 0.234497 0.201141
0.416046 0.253296 0.176819
0.594055 0.287811 0.186340
0.811340 0.335571 0.211243
0.092194 0.390839 0.201263
0.267975 0.409302 0.206177
0.446014 0.381165 0.223328
0.624054 0.415680 0.232849
0.841309 0.463440 0.257751
0.123077 0.574127 0.231934
0.301331 0.596252 0.244415
0.479401 0.568085 0.261536
0.653320 0.540588 0.278290
0.870575 0.588348 0.303162
0.167297 0.804230 0.291107
0.345551 0.826355 0.303619
0.523590 0.798218 0.320770
0.697479 0.770721 0.337494
0.905609 0.737823 0.357544
0.092194 0.081726 0.357239
0.245361 0.081726 0.357239
0.401337 0.081726 0.357239
0.576904 0.112579 0.359161
0.794159 0.160339 0.384033
0.092194 0.234863 0.357239
0.267975 0.253296 0.362183
0.423981 0.253296 0.362183
0.602020 0.287811 0.371765
0.819275 0.335571 0.396606
0.092194 0.390839 0.357239
0.267975 0.409302 0.362183
0.447113 0.428131 0.367249
0.628876 0.467621 0.385864
0.849091 0.518311 0.414001
0.123077 0.574127 0.387878
0.301331 0.596252 0.400452
0.484192 0.620056 0.414551
0.658173 0.592560 0.431305
0.873932 0.643250 0.459412
0.167297 0.804230 0.447052
0.345551 0.826355 0.459625
0.531372 0.853088 0.477020
0.705292 0.825592 0.493744
0.903625 0.792725 0.513763
0.123077 0.112579 0.540344
0.276245 0.112579 0.540344
0.432190 0.112579 0.540344
0.584686 0.112579 0.540344
0.801910 0.160339 0.565247
0.123077 0.265717 0.540344
0.301331 0.287811 0.552856
0.457367 0.287811 0.552856
0.609802 0.287811 0.552856
0.827057 0.335571 0.577698
0.123077 0.421661 0.540344
0.301331 0.443848 0.552856
0.484192 0.467621 0.566986
0.636658 0.467621 0.566986
0.856842 0.518311 0.595123
0.123077 0.574127 0.540344
0.301331 0.596252 0.552856
0.484192 0.620056 0.566986
0.676056 0.656464 0.595306
0.896240 0.707153 0.623413
0.167297 0.804230 0.599548
0.345551 0.826355 0.612030
0.531372 0.853088 0.629456
0.723175 0.889496 0.657715
0.920288 0.856598 0.677765
0.167297 0.160339 0.781891
0.320435 0.160339 0.781891
0.476379 0.160339 0.781891
0.628876 0.160339 0.781891
0.811218 0.160339 0.781891
0.167297 0.313446 0.781891
0.345551 0.335571 0.794403
0.501556 0.335571 0.794403
0.653961 0.335571 0.794403
0.836365 0.335571 0.794403
0.167297 0.469391 0.781891
0.345551 0.491577 0.794403
0.531372 0.518311 0.811768
0.683807 0.518311 0.811768
0.866150 0.518311 0.811768
0.167297 0.621887 0.781891
0.345551 0.643982 0.794403
0.531372 0.670746 0.811768
0.723175 0.707153 0.840057
0.905548 0.707153 0.840057
0.167297 0.804230 0.781891
0.345551 0.826355 0.794403
0.531372 0.853088 0.811768
0.723175 0.889496 0.840057
0.952667 0.933044 0.873901
