features/static/lut/Portra_800_3.CUBE
#Created by: Adobe Photoshop Export Color Lookup Plugin
TITLE "Portra 800 3"
#LUT size
LUT_3D_SIZE 32
#data domain
DOMAIN_MIN 0.0 0.0 0.0
DOMAIN_MAX 1.0 1.0 1.0
#LUT data points
0.046448 0.045319 0.045319
0.055725 0.046265 0.045807
0.078247 0.048340 0.046692
0.104919 0.050903 0.047211
0.132568 0.053955 0.047150
0.160187 0.056946 0.046417
0.187531 0.059998 0.045135
0.214417 0.062927 0.043274
0.240723 0.065796 0.040863
0.266479 0.068665 0.037994
0.291534 0.071411 0.034637
0.316040 0.074097 0.030884
0.339844 0.076691 0.026764
0.363037 0.079254 0.022308
0.385559 0.081726 0.017578
0.407593 0.084167 0.012543
0.430115 0.086639 0.006989
0.453308 0.089172 0.003448
0.478973 0.094482 0.005249
0.505646 0.100342 0.007721
0.533020 0.106354 0.010040
0.561127 0.112579 0.012207
0.589996 0.118927 0.014191
0.619568 0.125397 0.015961
0.649872 0.132080 0.017548
0.680908 0.138916 0.018860
0.712677 0.145905 0.019958
0.745209 0.153076 0.020752
0.778381 0.160339 0.021271
0.812347 0.167816 0.021454
0.815582 0.168549 0.021454
0.815582 0.168549 0.021454
0.047699 0.053955 0.046265
0.057343 0.053436 0.047180
0.079865 0.055878 0.048096
0.106537 0.058777 0.048676
0.134186 0.061737 0.048615
0.161804 0.064697 0.047974
0.189178 0.067719 0.046722
0.216034 0.070618 0.044891
0.242340 0.073425 0.042511
0.268097 0.076233 0.039673
0.293152 0.078979 0.036377
0.317657 0.081635 0.032684
0.341461 0.084167 0.028595
0.364685 0.086700 0.024170
0.387177 0.089172 0.019470
0.409210 0.091553 0.014465
0.431763 0.093994 0.008942
0.454926 0.096466 0.005432
0.480591 0.101746 0.007263
0.507263 0.107574 0.009766
0.534668 0.113556 0.012146
0.562775 0.119751 0.014343
0.591614 0.126007 0.016357
0.621216 0.132507 0.018219
0.651459 0.139038 0.019806
0.682526 0.145935 0.021210
0.714325 0.152863 0.022339
0.746826 0.159973 0.023163
0.780029 0.167297 0.023743
0.813965 0.174683 0.023956
0.817169 0.175415 0.023956
0.817169 0.175415 0.023956
0.050751 0.076965 0.048340
0.060394 0.076233 0.049255
0.083832 0.074493 0.051514
0.110474 0.077271 0.052185
0.138123 0.080170 0.052246
0.165771 0.083038 0.051697
0.193115 0.085938 0.050568
0.219971 0.088715 0.048828
0.246277 0.091431 0.046539
0.272034 0.094177 0.043793
0.297119 0.096741 0.040588
0.321594 0.099304 0.036987
0.345398 0.101807 0.032990
0.368622 0.104218 0.028656
0.391113 0.106598 0.024048
0.413177 0.108948 0.019135
0.435699 0.111237 0.013672
0.458862 0.113647 0.010284
0.484558 0.118835 0.012207
0.511230 0.124603 0.014801
0.538605 0.130463 0.017273
0.566711 0.136505 0.019562
0.595551 0.142700 0.021667
0.625153 0.149231 0.023621
0.655426 0.155792 0.025330
0.686462 0.162628 0.026825
0.718262 0.169708 0.028076
0.750793 0.176849 0.029053
0.783936 0.184052 0.029694
0.817932 0.191650 0.030090
0.821045 0.192322 0.030090
0.821045 0.192322 0.030090
0.054352 0.104187 0.050476
0.063995 0.103210 0.051422
0.087433 0.100861 0.053680
0.115143 0.098083 0.056335
0.142792 0.100861 0.056519
0.170441 0.103607 0.056091
0.197784 0.106354 0.055084
0.224670 0.109070 0.053467
0.250946 0.111664 0.051331
0.276703 0.114227 0.048676
0.301788 0.116730 0.045593
0.326263 0.119202 0.042084
0.350067 0.121552 0.038208
0.373291 0.123871 0.033966
0.395782 0.126160 0.029480
0.417816 0.128357 0.024658
0.440369 0.130615 0.019318
0.463531 0.132874 0.015991
0.489227 0.138153 0.018036
0.515900 0.144012 0.020752
0.543274 0.150024 0.023315
0.571381 0.156250 0.025757
0.600220 0.162567 0.027985
0.629791 0.169037 0.030029
0.660095 0.175751 0.031891
0.691132 0.182556 0.033478
0.722931 0.189606 0.034882
0.755432 0.196716 0.035980
0.788635 0.204010 0.036774
0.822571 0.211548 0.037292
0.825623 0.212158 0.037292
0.825623 0.212158 0.037292
0.058075 0.132446 0.052368
0.067688 0.131226 0.053284
0.091156 0.128235 0.055542
0.118866 0.124725 0.058197
0.147644 0.121063 0.060974
0.175262 0.123718 0.060669
0.202637 0.126312 0.059784
0.229492 0.128876 0.058289
0.255798 0.131378 0.056274
0.281555 0.133820 0.053741
0.306641 0.136200 0.050781
0.331116 0.138519 0.047394
0.354919 0.141022 0.043610
0.378143 0.143585 0.039490
0.400635 0.146057 0.035095
0.422668 0.148529 0.030396
0.445190 0.150940 0.025146
0.468384 0.153503 0.021942
0.494080 0.158844 0.024078
0.520752 0.164703 0.026917
0.548126 0.170685 0.029602
0.576233 0.176941 0.032166
0.605072 0.183258 0.034515
0.634674 0.189789 0.036713
0.664948 0.196442 0.038696
0.695984 0.203247 0.040405
0.727753 0.210236 0.041931
0.760284 0.217407 0.043182
0.793457 0.224640 0.044098
0.827393 0.232147 0.044769
0.830353 0.232849 0.044800
0.830353 0.232849 0.044800
0.061768 0.160645 0.053833
0.071381 0.159180 0.054779
0.094849 0.155579 0.057037
0.122589 0.151337 0.059692
0.151398 0.146912 0.062469
0.180115 0.142487 0.065216
0.207458 0.144989 0.064484
0.234344 0.147919 0.063110
0.260620 0.150787 0.061218
0.286407 0.153656 0.058807
0.311462 0.156403 0.055969
0.335938 0.159058 0.052673
0.359772 0.161682 0.049011
0.382965 0.164276 0.045013
0.405487 0.166718 0.040710
0.427521 0.169128 0.036102
0.450043 0.171600 0.030975
0.473236 0.174133 0.027893
0.498932 0.179504 0.030151
0.525574 0.185272 0.033051
0.552948 0.191376 0.035889
0.581055 0.197540 0.038544
0.609924 0.203888 0.041046
0.639496 0.210419 0.043365
0.669769 0.217041 0.045441
0.700836 0.223907 0.047333
0.732605 0.230835 0.048950
0.765106 0.238007 0.050354
0.798309 0.245392 0.051483
0.832245 0.252869 0.052277
0.835114 0.253510 0.052307
0.835114 0.253510 0.052307
0.065491 0.188599 0.054993
0.075134 0.187073 0.055939
0.098572 0.183350 0.058167
0.126312 0.178986 0.060852
0.155060 0.174438 0.063629
0.183807 0.169891 0.066376
0.212250 0.165405 0.069122
0.239136 0.168365 0.067902
0.265442 0.171234 0.066101
0.291199 0.174072 0.063843
0.316254 0.176819 0.061096
0.340759 0.179535 0.057922
0.364563 0.182129 0.054382
0.387756 0.184662 0.050476
0.410278 0.187134 0.046265
0.432312 0.189575 0.041748
0.454834 0.192047 0.036743
0.477997 0.194550 0.033752
0.503693 0.199921 0.036133
0.530365 0.205719 0.039154
0.557739 0.211792 0.042084
0.585846 0.217957 0.044861
0.614685 0.224274 0.047485
0.644287 0.230865 0.049927
0.674561 0.237518 0.052185
0.705597 0.244293 0.054169
0.737396 0.251343 0.055969
0.769897 0.258453 0.057465
0.803101 0.265747 0.058716
0.836975 0.273163 0.059631
0.839783 0.273926 0.059723
0.839783 0.273926 0.059723
0.069122 0.216034 0.055756
0.078766 0.214508 0.056702
0.102173 0.210815 0.058929
0.129944 0.206421 0.061615
0.158691 0.201874 0.064392
0.187439 0.197327 0.067139
0.215912 0.192841 0.069885
0.243835 0.188416 0.072571
0.270142 0.191284 0.070892
0.295898 0.194153 0.068756
0.320953 0.196899 0.066132
0.345459 0.199585 0.063080
0.369263 0.202179 0.059631
0.392456 0.204742 0.055847
0.414978 0.207245 0.051727
0.437012 0.209656 0.047333
0.459534 0.212128 0.042389
0.482727 0.214661 0.039520
0.508392 0.219940 0.041992
0.535065 0.225830 0.045166
0.562469 0.231873 0.048187
0.590546 0.238098 0.051117
0.619415 0.244385 0.053833
0.648987 0.250854 0.056366
0.679260 0.257568 0.058746
0.710327 0.264404 0.060913
0.742096 0.271362 0.062805
0.774628 0.278564 0.064484
0.807800 0.285828 0.065826
0.841705 0.293365 0.066956
0.844421 0.294006 0.067017
0.844421 0.294006 0.067017
0.072632 0.242889 0.056152
0.082245 0.241394 0.057098
0.105682 0.237671 0.059357
0.133484 0.233276 0.062012
0.162262 0.228729 0.064789
0.190948 0.224213 0.067535
0.219452 0.219696 0.070282
0.247375 0.215271 0.072968
0.274750 0.210938 0.075623
0.300507 0.213806 0.073578
0.325562 0.216522 0.071045
0.350067 0.219238 0.068115
0.373871 0.221832 0.064758
0.397064 0.224365 0.061066
0.419586 0.226837 0.057068
0.441620 0.229279 0.052765
0.464172 0.231781 0.047943
0.487335 0.234344 0.045197
0.513000 0.239594 0.047729
0.539673 0.245483 0.051025
0.567047 0.251495 0.054169
0.595154 0.257660 0.057190
0.624023 0.264038 0.060028
0.653625 0.270599 0.062744
0.683868 0.277222 0.065216
0.714905 0.283997 0.067474
0.746704 0.291046 0.069519
0.779205 0.298157 0.071289
0.812378 0.305420 0.072784
0.846283 0.312988 0.074066
0.848907 0.313629 0.074127
0.848907 0.313629 0.074127
0.076141 0.269226 0.056274
0.085754 0.267700 0.057190
0.109222 0.263977 0.059448
0.136932 0.259613 0.062134
0.165710 0.255066 0.064880
0.194458 0.250519 0.067657
0.222931 0.246002 0.070404
0.250854 0.241608 0.073090
0.278229 0.237274 0.075714
0.305023 0.233032 0.078278
0.330078 0.235779 0.075897
0.354553 0.238464 0.073059
0.378387 0.241089 0.069824
0.401581 0.243591 0.066223
0.424072 0.246063 0.062317
0.446136 0.248505 0.058105
0.468658 0.251007 0.053375
0.491852 0.253540 0.050720
0.517517 0.258820 0.053375
0.544189 0.264679 0.056763
0.571564 0.270782 0.060028
0.599670 0.276947 0.063171
0.628540 0.283295 0.066132
0.658112 0.289825 0.068909
0.688416 0.296509 0.071564
0.719452 0.303345 0.073944
0.751190 0.310242 0.076080
0.783752 0.317505 0.078033
0.816925 0.324768 0.079651
0.850769 0.332214 0.081024
0.853363 0.332947 0.081146
0.853363 0.332947 0.081146
0.079498 0.294830 0.056061
0.089142 0.293304 0.056976
0.112549 0.289612 0.059235
0.140320 0.285217 0.061890
0.169067 0.280670 0.064667
0.197876 0.276123 0.067444
0.226318 0.271606 0.070160
0.254242 0.267212 0.072876
0.281586 0.262878 0.075500
0.308380 0.258636 0.078064
0.334473 0.254517 0.080597
0.358948 0.257202 0.077850
0.382782 0.259827 0.074707
0.405975 0.262360 0.071228
0.428497 0.264832 0.067413
0.450531 0.267273 0.063293
0.473053 0.269775 0.058685
0.496246 0.272339 0.056122
0.521942 0.277618 0.058868
0.548584 0.283447 0.062347
0.575958 0.289459 0.065704
0.604065 0.295715 0.068970
0.632935 0.302063 0.072052
0.662506 0.308502 0.074951
0.692780 0.315186 0.077667
0.723816 0.321991 0.080200
0.755585 0.328979 0.082489
0.788147 0.336212 0.084564
0.821289 0.343445 0.086304
0.855133 0.350952 0.087799
0.857666 0.351715 0.087952
0.857666 0.351715 0.087952
0.082825 0.319824 0.055573
0.092468 0.318298 0.056488
0.115875 0.314606 0.058746
0.143616 0.310211 0.061401
0.172363 0.305664 0.064178
0.201141 0.301117 0.066956
0.229614 0.296631 0.069672
0.257568 0.292206 0.072357
0.284912 0.287872 0.075012
0.311707 0.283630 0.077576
0.337799 0.279510 0.080078
0.363251 0.275482 0.082550
0.387054 0.278076 0.079498
0.410278 0.280670 0.076111
0.432770 0.283142 0.072388
0.454803 0.285522 0.068359
0.477356 0.288025 0.063843
0.500519 0.290588 0.061371
0.526215 0.295837 0.064209
0.552856 0.301727 0.067810
0.580231 0.307770 0.071289
0.608368 0.313995 0.074646
0.637207 0.320312 0.077820
0.666779 0.326782 0.080841
0.697083 0.333527 0.083710
0.728119 0.340332 0.086334
0.759918 0.347351 0.088745
0.792419 0.354492 0.090912
0.825592 0.361725 0.092804
0.859436 0.369232 0.094421
0.861847 0.369965 0.094574
0.861847 0.369965 0.094574
0.086029 0.344147 0.054779
0.095642 0.342651 0.055725
0.119110 0.338928 0.057983
0.146820 0.334534 0.060638
0.175598 0.329987 0.063416
0.204376 0.325439 0.066193
0.232819 0.320953 0.068909
0.260742 0.316528 0.071594
0.288116 0.312195 0.074249
0.314941 0.307953 0.076813
0.341034 0.303833 0.079315
0.366394 0.299835 0.081787
0.391235 0.295898 0.084167
0.414429 0.298462 0.080872
0.436951 0.300934 0.077240
0.458984 0.303375 0.073303
0.481506 0.305817 0.068848
0.504700 0.308411 0.066467
0.530396 0.313690 0.069427
0.557037 0.319580 0.073120
0.584412 0.325531 0.076691
0.612518 0.331726 0.080139
0.641388 0.338104 0.083435
0.670959 0.344574 0.086548
0.701233 0.351318 0.089539
0.732269 0.358093 0.092285
0.764069 0.365143 0.094818
0.796570 0.372223 0.097107
0.829742 0.379517 0.099121
0.863586 0.386993 0.100861
0.865936 0.387787 0.101044
0.865936 0.387787 0.101044
0.089142 0.367859 0.053802
0.098785 0.366333 0.054718
0.122192 0.362640 0.056976
0.149933 0.358246 0.059662
0.178711 0.353699 0.062408
0.207550 0.349152 0.065186
0.235931 0.344666 0.067932
0.263885 0.340240 0.070618
0.291229 0.335907 0.073242
0.317993 0.331665 0.075806
0.344116 0.327545 0.078339
0.369598 0.323517 0.080780
0.394379 0.319611 0.083160
0.418518 0.315796 0.085480
0.441010 0.318237 0.081940
0.463043 0.320709 0.078094
0.485596 0.323181 0.073761
0.508759 0.325684 0.071442
0.534454 0.331055 0.074524
0.561096 0.336853 0.078278
0.588470 0.342896 0.081970
0.616577 0.349091 0.085510
0.645447 0.355408 0.088898
0.675018 0.361938 0.092163
0.705292 0.368591 0.095215
0.736328 0.375427 0.098083
0.768127 0.382477 0.100739
0.800659 0.389587 0.103149
0.833832 0.396881 0.105286
0.867615 0.404358 0.107147
0.869934 0.405060 0.107300
0.869934 0.405060 0.107300
0.092194 0.390839 0.052582
0.101837 0.389313 0.053528
0.125275 0.385620 0.055786
0.153015 0.381226 0.058441
0.181763 0.376678 0.061218
0.210541 0.372131 0.063965
0.238953 0.367645 0.066711
0.266968 0.363220 0.069397
0.294220 0.358917 0.072021
0.321014 0.354675 0.074615
0.347137 0.350555 0.077118
0.372620 0.346527 0.079559
0.397430 0.342590 0.081970
0.421509 0.338776 0.084290
0.444946 0.335083 0.086548
0.466980 0.337494 0.082764
0.489532 0.339966 0.078491
0.512695 0.342499 0.076294
0.538391 0.347839 0.079437
0.565063 0.353699 0.083313
0.592438 0.359741 0.087097
0.620514 0.365906 0.090729
0.649414 0.372314 0.094269
0.678986 0.378815 0.097595
0.709229 0.385406 0.100739
0.740295 0.392303 0.103729
0.772095 0.399292 0.106506
0.804565 0.406372 0.108978
0.837769 0.413635 0.111237
0.871552 0.421173 0.113251
0.873810 0.421967 0.113434
0.873810 0.421967 0.113434
0.095184 0.413361 0.051178
0.104828 0.411835 0.052094
0.128296 0.408112 0.054352
0.155975 0.403748 0.057037
0.184784 0.399200 0.059784
0.213501 0.394653 0.062561
0.241943 0.390167 0.065308
0.269897 0.385742 0.067993
0.297241 0.381409 0.070618
0.324036 0.377167 0.073181
0.350159 0.373047 0.075714
0.375580 0.369019 0.078156
0.400391 0.365112 0.080536
0.424530 0.361298 0.082855
0.447937 0.357574 0.085114
0.470856 0.353973 0.087311
0.493378 0.356415 0.083130
0.516571 0.359009 0.081024
0.542236 0.364288 0.084259
0.568909 0.370148 0.088226
0.596283 0.376221 0.092102
0.624390 0.382324 0.095825
0.653259 0.388733 0.099457
0.682831 0.395233 0.102875
0.713104 0.401947 0.106171
0.744141 0.408691 0.109222
0.775909 0.415680 0.112091
0.808441 0.422882 0.114746
0.841614 0.430115 0.117096
0.875397 0.437592 0.119171
0.877563 0.438324 0.119385
0.877563 0.438324 0.119385
0.098236 0.436371 0.049500
0.107880 0.434845 0.050415
0.131226 0.431152 0.052673
0.159027 0.426758 0.055328
0.187775 0.422211 0.058105
0.216553 0.417664 0.060883
0.244995 0.413177 0.063599
0.272949 0.408752 0.066284
0.300323 0.404419 0.068939
0.327118 0.400177 0.071503
0.353241 0.396057 0.074036
0.378662 0.392029 0.076477
0.403412 0.388123 0.078857
0.427582 0.384308 0.081177
0.450958 0.380615 0.083435
0.473846 0.376984 0.085632
0.497345 0.373291 0.087891
0.520508 0.375854 0.085876
0.546204 0.381165 0.089203
0.572845 0.386993 0.093262
0.600220 0.393036 0.097198
0.628326 0.399231 0.101074
0.657196 0.405548 0.104767
0.686768 0.412109 0.108307
0.717072 0.418762 0.111694
0.748108 0.425598 0.114868
0.779877 0.432526 0.117828
0.812378 0.439636 0.120575
0.845581 0.447021 0.123077
0.879333 0.454407 0.125275
0.881439 0.455200 0.125519
0.881439 0.455200 0.125519
0.101318 0.460052 0.050110
0.110931 0.458527 0.051025
0.134369 0.454834 0.053284
0.162109 0.450439 0.055969
0.190918 0.445892 0.058746
0.219635 0.441345 0.061493
0.248077 0.436859 0.064240
0.276062 0.432434 0.066925
0.303467 0.428101 0.069550
0.330200 0.423859 0.072144
0.356354 0.419739 0.074646
0.381805 0.415710 0.077087
0.406586 0.411804 0.079498
0.430664 0.407990 0.081787
0.454102 0.404266 0.084045
0.477051 0.400665 0.086273
0.500519 0.396942 0.088531
0.524567 0.393127 0.090851
0.550262 0.398438 0.094269
0.576904 0.404266 0.098389
0.604279 0.410309 0.102478
0.632385 0.416504 0.106415
0.661255 0.422852 0.110229
0.690826 0.429382 0.113892
0.721100 0.436035 0.117371
0.752136 0.442902 0.120667
0.783936 0.449860 0.123749
0.816467 0.457031 0.126648
0.849609 0.464264 0.129211
0.883392 0.471771 0.131561
0.885406 0.472473 0.131775
0.885406 0.472473 0.131775
0.106354 0.487122 0.056366
0.115967 0.485596 0.057312
0.139404 0.481903 0.059540
0.167145 0.477509 0.062225
0.195984 0.472961 0.065002
0.224731 0.468414 0.067749
0.253143 0.463928 0.070496
0.281036 0.459503 0.073181
0.308411 0.455170 0.075806
0.335205 0.450928 0.078400
0.361359 0.446808 0.080902
0.386749 0.442780 0.083344
0.411560 0.438873 0.085754
0.435730 0.435059 0.088074
0.459137 0.431335 0.090332
0.482025 0.427734 0.092529
0.505524 0.424011 0.094788
0.529602 0.420197 0.097107
0.554443 0.416290 0.099487
0.581085 0.422119 0.103729
0.608459 0.428162 0.107880
0.636566 0.434326 0.111938
0.665436 0.440735 0.115875
0.695007 0.447266 0.119629
0.725281 0.453857 0.123230
0.756317 0.460693 0.126617
0.788116 0.467743 0.129883
0.820648 0.474915 0.132874
0.853821 0.482208 0.135590
0.887543 0.489655 0.138062
0.889496 0.490326 0.138245
0.889496 0.490326 0.138245
0.111786 0.515350 0.063629
0.121368 0.513824 0.064575
0.144867 0.510132 0.066833
0.172577 0.505737 0.069489
0.201385 0.501190 0.072266
0.230042 0.496643 0.075012
0.258514 0.492157 0.077759
0.286499 0.487732 0.080444
0.313873 0.483398 0.083099
0.340576 0.479187 0.085663
0.366730 0.475037 0.088165
0.392151 0.471039 0.090607
0.417023 0.467102 0.093018
0.441101 0.463287 0.095337
0.464569 0.459564 0.097595
0.487457 0.455963 0.099792
0.510925 0.452240 0.102051
0.534943 0.448456 0.104370
0.559845 0.444519 0.106750
0.585388 0.440491 0.109222
0.612762 0.446503 0.113464
0.640869 0.452698 0.117645
0.669739 0.459015 0.121643
0.699310 0.465546 0.125519
0.729584 0.472198 0.129242
0.760620 0.479004 0.132782
0.792419 0.486023 0.136108
0.824921 0.493164 0.139221
0.858124 0.500488 0.142090
0.891815 0.507935 0.144684
0.893707 0.508667 0.144897
0.893707 0.508667 0.144897
0.117340 0.544342 0.071106
0.126984 0.542816 0.072021
0.150421 0.539124 0.074280
0.178101 0.534760 0.076965
0.206940 0.530182 0.079712
0.235718 0.525635 0.082489
0.264160 0.521149 0.085236
0.292114 0.516724 0.087921
0.319427 0.512421 0.090546
0.346252 0.508179 0.093140
0.372284 0.504059 0.095642
0.397766 0.500031 0.098083
0.422546 0.496094 0.100464
0.446686 0.492279 0.102783
0.470123 0.488586 0.105042
0.493073 0.484955 0.107269
0.516479 0.481262 0.109497
0.540558 0.477448 0.111816
0.565430 0.473511 0.114227
0.590973 0.469482 0.116669
0.617188 0.465332 0.119202
0.645294 0.471527 0.123474
0.674164 0.477875 0.127625
0.703705 0.484344 0.131592
0.734009 0.491058 0.135437
0.765045 0.497925 0.139099
0.796814 0.504852 0.142548
0.829346 0.512024 0.145782
0.862518 0.519318 0.148773
0.896240 0.526794 0.151520
0.898041 0.527466 0.151733
0.898041 0.527466 0.151733
0.123077 0.574127 0.078796
0.132751 0.572601 0.079712
0.156128 0.568909 0.081970
0.183899 0.564514 0.084656
0.212738 0.559967 0.087402
0.241394 0.555420 0.090179
0.269836 0.550934 0.092896
0.297852 0.546509 0.095612
0.325134 0.542175 0.098236
0.351990 0.537933 0.100800
0.378082 0.533813 0.103333
0.403564 0.529785 0.105774
0.428253 0.525879 0.108154
0.452423 0.522064 0.110474
0.475830 0.518372 0.112732
0.498688 0.514740 0.114929
0.522247 0.511017 0.117188
0.546295 0.507233 0.119507
0.571106 0.503296 0.121887
0.596710 0.499268 0.124359
0.622925 0.495117 0.126892
0.649811 0.490875 0.129456
0.678680 0.497223 0.133728
0.708252 0.503662 0.137817
0.738525 0.510376 0.141785
0.769592 0.517273 0.145569
0.801361 0.524200 0.149139
0.833862 0.531372 0.152527
0.867065 0.538635 0.155640
0.900757 0.546173 0.158508
0.902466 0.546783 0.158722
0.902466 0.546783 0.158722
0.128967 0.604706 0.086639
0.138580 0.603180 0.087585
0.161987 0.599487 0.089813
0.189758 0.595093 0.092499
0.218567 0.590515 0.095276
0.247284 0.585999 0.098022
0.275696 0.581512 0.100769
0.303680 0.577087 0.103455
0.331024 0.572754 0.106079
0.357849 0.568512 0.108673
0.383972 0.564392 0.111176
0.409393 0.560364 0.113617
0.434143 0.556458 0.116028
0.458252 0.552643 0.118347
0.481781 0.548920 0.120605
0.504669 0.545319 0.122803
0.528076 0.541595 0.125061
0.552185 0.537781 0.127380
0.577087 0.533875 0.129761
0.602539 0.529846 0.132202
0.628784 0.525696 0.134735
0.655731 0.521423 0.137329
0.683319 0.517059 0.139984
0.712921 0.523590 0.144226
0.743164 0.530212 0.148315
0.774231 0.537048 0.152191
0.806030 0.544098 0.155945
0.838531 0.551208 0.159424
0.871704 0.558472 0.162659
0.905396 0.565948 0.165680
0.907013 0.566650 0.165955
0.907013 0.566650 0.165955
0.134979 0.636017 0.094696
0.144653 0.634491 0.095642
0.168121 0.630798 0.097900
0.195709 0.626434 0.100555
0.224609 0.621857 0.103333
0.253357 0.617310 0.106110
0.281799 0.612823 0.108826
0.309662 0.608429 0.111511
0.337158 0.604065 0.114166
0.363892 0.599854 0.116730
0.389893 0.595734 0.119232
0.415375 0.591705 0.121674
0.440125 0.587799 0.124054
0.464325 0.583984 0.126404
0.487793 0.580261 0.128662
0.510681 0.576630 0.130859
0.534149 0.572937 0.133118
0.558228 0.569122 0.135437
0.583130 0.565186 0.137817
0.608582 0.561157 0.140289
0.634735 0.557037 0.142792
0.661652 0.552765 0.145386
0.689392 0.548401 0.148041
0.717682 0.543915 0.150787
0.747955 0.550598 0.154999
0.778992 0.557404 0.159027
0.810760 0.564362 0.162872
0.843292 0.571564 0.166504
0.876465 0.578827 0.169891
0.910126 0.586273 0.173035
0.911713 0.587036 0.173340
0.911713 0.587036 0.173340
0.141144 0.668091 0.102966
0.150696 0.666595 0.103912
0.174164 0.662872 0.106171
0.201935 0.658508 0.108826
0.230774 0.653931 0.111603
0.259430 0.649414 0.114349
0.287964 0.644897 0.117096
0.315887 0.640472 0.119781
0.343231 0.636169 0.122437
0.370117 0.631927 0.125000
0.396088 0.627808 0.127502
0.421600 0.623779 0.129974
0.446411 0.619843 0.132355
0.470428 0.616058 0.134674
0.493866 0.612335 0.136932
0.516907 0.608704 0.139130
0.540344 0.605011 0.141388
0.564362 0.601196 0.143707
0.589172 0.597290 0.146088
0.614746 0.593231 0.148560
0.640991 0.589081 0.151062
0.667877 0.584839 0.153656
0.695465 0.580475 0.156311
0.723846 0.575989 0.159058
0.752838 0.571411 0.161835
0.783875 0.578217 0.165985
0.815643 0.585205 0.169983
0.848175 0.592377 0.173767
0.881348 0.599701 0.177307
0.915009 0.607117 0.180603
0.916504 0.607849 0.180908
0.916504 0.607849 0.180908
0.147461 0.700989 0.111420
0.157166 0.699432 0.112366
0.180511 0.695740 0.114624
0.208252 0.691376 0.117279
0.237030 0.686829 0.120056
0.265839 0.682281 0.122833
0.294189 0.677795 0.125549
0.322235 0.673340 0.128235
0.349487 0.669037 0.130859
0.376404 0.664795 0.133453
0.402405 0.660675 0.135956
0.427917 0.656647 0.138428
0.452667 0.652740 0.140808
0.476776 0.648926 0.143127
0.500275 0.645203 0.145386
0.523132 0.641602 0.147583
0.546631 0.637878 0.149841
0.570740 0.634064 0.152161
0.595520 0.630157 0.154541
0.621033 0.626129 0.156982
0.647339 0.621979 0.159515
0.674286 0.617706 0.162109
0.701813 0.613342 0.164764
0.730164 0.608856 0.167511
0.759125 0.604279 0.170288
0.788879 0.599579 0.173157
0.820648 0.606537 0.177277
0.853180 0.613708 0.181213
0.886383 0.621094 0.184906
0.919983 0.628510 0.188354
0.921387 0.629181 0.188660
0.921387 0.629181 0.188660
0.153931 0.734650 0.120117
0.163635 0.733124 0.121033
0.187073 0.729431 0.123291
0.214783 0.725037 0.125946
0.243530 0.720490 0.128723
0.272217 0.715942 0.131470
0.300751 0.711456 0.134216
0.328644 0.707031 0.136902
0.356049 0.702698 0.139557
0.382751 0.698486 0.142120
0.408844 0.694366 0.144623
0.434418 0.690308 0.147095
0.459198 0.686401 0.149475
0.483337 0.682587 0.151794
0.506775 0.678894 0.154053
0.529572 0.675262 0.156250
0.553009 0.671570 0.158508
0.577148 0.667755 0.160828
0.602081 0.663818 0.163208
0.627502 0.659790 0.165680
0.653748 0.655640 0.168182
0.680664 0.651398 0.170776
0.708374 0.647003 0.173462
0.736572 0.642548 0.176178
0.765564 0.637970 0.178955
0.795288 0.633270 0.181824
0.825775 0.628448 0.184753
0.858307 0.635651 0.188843
0.891479 0.642883 0.192657
0.925079 0.650330 0.196259
0.926422 0.651093 0.196594
0.926422 0.651093 0.196594
0.160553 0.769104 0.128967
0.170166 0.767578 0.129913
0.193695 0.763855 0.132172
0.221344 0.759491 0.134827
0.250183 0.754944 0.137604
0.278839 0.750397 0.140350
0.307343 0.745911 0.143097
0.335297 0.741486 0.145782
0.362610 0.737152 0.148407
0.389526 0.732910 0.151001
0.415588 0.728790 0.153503
0.441010 0.724762 0.155945
0.465729 0.720856 0.158325
0.489929 0.717041 0.160675
0.513245 0.713348 0.162903
0.536255 0.709717 0.165131
0.559601 0.706024 0.167358
0.583832 0.702179 0.169708
